;FLAVOR:Marlin
;TIME:8731
;Filament used: 5.77835m
;Layer height: 0.2
;MINX:21.96
;MINY:23.829
;MINZ:0.2
;MAXX:143.036
;MAXY:141.173
;MAXZ:10
;Generated with Creality Slicer 4.8.0-147
M140 S70
M105
M190 S70
M104 S220
M105
M109 S220
M82 ;absolute extrusion mode
M201 X500.00 Y500.00 Z100.00 E5000.00 ;Setup machine max acceleration
M203 X500.00 Y500.00 Z10.00 E50.00 ;Setup machine max feedrate
M204 P500.00 R1000.00 T500.00 ;Setup Print/Retract/Travel acceleration
M205 X8.00 Y8.00 Z0.40 E5.00 ;Setup Jerk
M220 S100 ;Reset Feedrate
M221 S100 ;Reset Flowrate

G28 ;Home
M420 S1

G92 E0 ;Reset Extruder
G1 Z2.0 F3000 ;Move Z Axis up
G1 X10.1 Y20 Z0.28 F5000.0 ;Move to start position
G1 X10.1 Y150.0 Z0.28 F1500.0 E15 ;Draw the first line
G1 X10.4 Y150.0 Z0.28 F5000.0 ;Move to side a little
G1 X10.4 Y20 Z0.28 F1500.0 E30 ;Draw the second line
G92 E0 ;Reset Extruder
G1 Z2.0 F3000 ;Move Z Axis up

G92 E0
G92 E0
G1 F2400 E-4
;LAYER_COUNT:50
;LAYER:0
M107
G0 F6000 X26.437 Y27.804 Z0.2
;TYPE:SKIRT
G1 F2400 E0
G1 F1200 X26.625 Y27.627 E0.00859
G1 X27.556 Y26.84 E0.04913
G1 X27.82 Y26.64 E0.06015
G1 X28.605 Y26.096 E0.09192
G1 X29.461 Y25.604 E0.12475
G1 X29.907 Y25.373 E0.14146
G1 X30.907 Y24.915 E0.17804
G1 X31.104 Y24.836 E0.1851
G1 X32.128 Y24.481 E0.22115
G1 X32.342 Y24.418 E0.22857
G1 X33.62 Y24.121 E0.27221
G1 X34.135 Y24.032 E0.28959
G1 X34.897 Y23.926 E0.31518
G1 X35.099 Y23.905 E0.32193
G1 X35.684 Y23.859 E0.34145
G1 X35.799 Y23.853 E0.34528
G1 X36.361 Y23.838 E0.36398
G1 X38.847 Y23.833 E0.44667
G1 X39.722 Y23.841 E0.47577
G1 X41.669 Y23.849 E0.54053
G1 X42.862 Y23.843 E0.58021
G1 X47.885 Y23.846 E0.74727
G1 X49.813 Y23.835 E0.8114
G1 X51.162 Y23.841 E0.85627
G1 X52.632 Y23.832 E0.90516
G1 X53.896 Y23.829 E0.9472
G1 X54.141 Y23.831 E0.95535
G1 X54.848 Y23.845 E0.97887
G1 X56.446 Y23.861 E1.03202
G1 X57.344 Y23.862 E1.06189
G1 X58.975 Y23.849 E1.11614
G1 X59.369 Y23.844 E1.12924
G1 X60.509 Y23.838 E1.16716
G1 X61.382 Y23.843 E1.1962
G1 X63.286 Y23.836 E1.25953
G1 X63.711 Y23.839 E1.27366
G1 X64.823 Y23.841 E1.31065
G1 X66.258 Y23.831 E1.35838
G1 X67.496 Y23.83 E1.39955
G1 X68.519 Y23.846 E1.43358
G1 X70.307 Y23.862 E1.49305
G1 X70.889 Y23.862 E1.51241
G1 X72.608 Y23.847 E1.56959
G1 X73.399 Y23.837 E1.5959
G1 X80.092 Y23.844 E1.81851
G1 X80.935 Y23.84 E1.84655
G1 X82.23 Y23.843 E1.88962
G1 X83.401 Y23.831 E1.92857
G1 X84.198 Y23.83 E1.95508
G1 X86.911 Y23.845 E2.04531
G1 X87.376 Y23.839 E2.06078
G1 X87.923 Y23.84 E2.07897
G1 X88.213 Y23.837 E2.08862
G1 X91.875 Y23.836 E2.21042
G1 X92.497 Y23.838 E2.23111
G1 X93.763 Y23.835 E2.27321
G1 X94.997 Y23.845 E2.31426
G1 X98.782 Y23.838 E2.44015
G1 X99.375 Y23.834 E2.45987
G1 X102.282 Y23.834 E2.55656
G1 X103.511 Y23.837 E2.59744
G1 X103.982 Y23.834 E2.6131
G1 X106.857 Y23.834 E2.70872
G1 X107.592 Y23.831 E2.73317
G1 X108.22 Y23.833 E2.75406
G1 X109.78 Y23.829 E2.80594
G1 X113.933 Y23.841 E2.94407
G1 X114.123 Y23.843 E2.95039
G1 X116.043 Y23.846 E3.01425
G1 X118.268 Y23.846 E3.08826
G1 X120.127 Y23.84 E3.15009
G1 X120.874 Y23.846 E3.17493
G1 X124.034 Y23.838 E3.28004
G1 X127.063 Y23.846 E3.38078
G1 X127.417 Y23.842 E3.39256
G1 X128.316 Y23.842 E3.42246
G1 X128.589 Y23.845 E3.43154
G1 X129.131 Y23.858 E3.44957
G1 X129.817 Y23.895 E3.47242
G1 X130.042 Y23.914 E3.47993
G1 X131.082 Y24.051 E3.51482
G1 X131.374 Y24.103 E3.52468
G1 X132.668 Y24.412 E3.56893
G1 X132.953 Y24.498 E3.57883
G1 X133.489 Y24.674 E3.5976
G1 X133.761 Y24.771 E3.6072
G1 X134.646 Y25.129 E3.63896
G1 X135.579 Y25.606 E3.67381
G1 X135.807 Y25.736 E3.68254
G1 X136.616 Y26.243 E3.71429
G1 X137.044 Y26.552 E3.73185
G1 X137.398 Y26.824 E3.7467
G1 X137.876 Y27.205 E3.76703
G1 X138.898 Y28.126 E3.81279
G1 X139.017 Y28.247 E3.81843
G1 X139.657 Y28.956 E3.8502
G1 X140.2 Y29.663 E3.87985
G1 X140.525 Y30.123 E3.89858
G1 X140.867 Y30.636 E3.91909
G1 X141.345 Y31.462 E3.95083
G1 X141.56 Y31.894 E3.96688
G1 X141.701 Y32.193 E3.97787
G1 X142.205 Y33.45 E4.02292
G1 X142.362 Y33.921 E4.03943
G1 X142.626 Y34.839 E4.0712
G1 X142.836 Y35.94 E4.10848
G1 X142.886 Y36.296 E4.12044
G1 X142.994 Y37.603 E4.16406
G1 X143.003 Y38.087 E4.18016
G1 X143.011 Y40.291 E4.25346
G1 X143.025 Y41.132 E4.28144
G1 X143.033 Y43.412 E4.35727
G1 X143.033 Y44.937 E4.40799
G1 X143.036 Y46.1 E4.44668
G1 X143.025 Y48.904 E4.53994
G1 X143.032 Y52.682 E4.66559
G1 X143.025 Y55.545 E4.76082
G1 X143.025 Y56.776 E4.80176
G1 X143.029 Y57.3 E4.81919
G1 X143.033 Y58.679 E4.86506
G1 X143.033 Y60.12 E4.91298
G1 X143.029 Y60.804 E4.93574
G1 X143.018 Y61.821 E4.96956
G1 X143.018 Y64.477 E5.0579
G1 X143.028 Y65.22 E5.08262
G1 X143.028 Y65.524 E5.09273
G1 X143.023 Y65.899 E5.1052
G1 X143.017 Y67.614 E5.16224
G1 X143.022 Y68.624 E5.19584
G1 X143.021 Y69.15 E5.21333
G1 X143.025 Y70.174 E5.24739
G1 X143.029 Y70.693 E5.26465
G1 X143.033 Y72.151 E5.31314
G1 X143.033 Y73.687 E5.36423
G1 X143.02 Y75.175 E5.41373
G1 X143.018 Y78 E5.50769
G1 X143.031 Y78.966 E5.53982
G1 X143.034 Y80.4 E5.58751
G1 X143.031 Y80.907 E5.60438
G1 X143.033 Y81.326 E5.61831
G1 X143.026 Y82.093 E5.64382
G1 X143.022 Y83.351 E5.68567
G1 X143.03 Y85.294 E5.75029
G1 X143.028 Y86.271 E5.78279
G1 X143.021 Y87.051 E5.80873
G1 X143.018 Y88.261 E5.84897
G1 X143.021 Y88.857 E5.8688
G1 X143.021 Y91.936 E5.97121
G1 X143.026 Y92.261 E5.98202
G1 X143.026 Y92.577 E5.99253
G1 X143.022 Y92.876 E6.00247
G1 X143.016 Y94.706 E6.06334
G1 X143.021 Y95.518 E6.09035
G1 X143.02 Y96.07 E6.10871
G1 X143.031 Y98.101 E6.17626
G1 X143.027 Y99.832 E6.23383
G1 X143.021 Y100.523 E6.25682
G1 X143.018 Y101.734 E6.29709
G1 X143.021 Y102.331 E6.31695
G1 X143.021 Y105.408 E6.41929
G1 X143.026 Y105.732 E6.43007
G1 X143.026 Y106.049 E6.44061
G1 X143.022 Y106.347 E6.45052
G1 X143.016 Y108.18 E6.51149
G1 X143.021 Y109.021 E6.53946
G1 X143.02 Y109.539 E6.55669
G1 X143.025 Y111.643 E6.62667
G1 X143.019 Y112.043 E6.63998
G1 X143.009 Y113.502 E6.6885
G1 X143.023 Y115.594 E6.75809
G1 X143.026 Y115.939 E6.76956
G1 X143.016 Y117.269 E6.8138
G1 X143.015 Y118.576 E6.85727
G1 X143.028 Y120.733 E6.92901
G1 X143.026 Y121.271 E6.94691
G1 X143.034 Y123.06 E7.00641
G1 X143.029 Y124.652 E7.05936
G1 X143.031 Y125.228 E7.07852
G1 X143.019 Y127.096 E7.14065
G1 X142.973 Y128.05 E7.17242
G1 X142.877 Y128.817 E7.19813
G1 X142.848 Y128.999 E7.20426
G1 X142.751 Y129.525 E7.22205
G1 X142.629 Y130.112 E7.24199
G1 X142.396 Y131.038 E7.27375
G1 X141.977 Y132.211 E7.31517
G1 X141.94 Y132.299 E7.31835
G1 X141.713 Y132.804 E7.33676
G1 X141.577 Y133.088 E7.34724
G1 X141.36 Y133.518 E7.36326
G1 X141.235 Y133.753 E7.37211
G1 X140.751 Y134.576 E7.40387
G1 X140.241 Y135.304 E7.43343
G1 X140.088 Y135.505 E7.44183
G1 X139.47 Y136.249 E7.474
G1 X139.061 Y136.701 E7.49428
G1 X138.391 Y137.381 E7.52603
G1 X137.891 Y137.822 E7.5482
G1 X137.832 Y137.871 E7.55075
G1 X137.03 Y138.479 E7.58422
G1 X136.839 Y138.611 E7.59195
G1 X136.251 Y138.992 E7.61525
G1 X136.044 Y139.117 E7.62329
G1 X135.103 Y139.626 E7.65888
G1 X134.624 Y139.857 E7.67656
G1 X133.747 Y140.236 E7.70834
G1 X133.219 Y140.423 E7.72697
G1 X133.051 Y140.478 E7.73285
G1 X131.822 Y140.806 E7.77516
G1 X131.586 Y140.855 E7.78317
G1 X130.606 Y141.014 E7.8162
G1 X130.276 Y141.053 E7.82725
G1 X129.239 Y141.128 E7.86183
G1 X128.218 Y141.155 E7.8958
G1 X127.905 Y141.159 E7.90621
G1 X126.953 Y141.158 E7.93787
G1 X125.628 Y141.161 E7.98194
G1 X121.839 Y141.146 E8.10797
G1 X120.563 Y141.15 E8.15041
G1 X119.337 Y141.16 E8.19119
G1 X117.834 Y141.166 E8.24118
G1 X115.652 Y141.153 E8.31375
G1 X113.084 Y141.156 E8.39916
G1 X112.012 Y141.162 E8.43482
G1 X110.842 Y141.151 E8.47373
G1 X109 Y141.164 E8.535
G1 X106.284 Y141.163 E8.62534
G1 X102.06 Y141.15 E8.76583
G1 X100.966 Y141.132 E8.80222
G1 X98.326 Y141.123 E8.89003
G1 X96.592 Y141.156 E8.94771
G1 X95.433 Y141.163 E8.98626
G1 X89.613 Y141.165 E9.17983
G1 X87.711 Y141.172 E9.24309
G1 X85.796 Y141.173 E9.30679
G1 X84.078 Y141.168 E9.36393
G1 X83.677 Y141.169 E9.37727
G1 X76.479 Y141.159 E9.61667
G1 X75.105 Y141.165 E9.66237
G1 X70.732 Y141.172 E9.80782
G1 X67.069 Y141.161 E9.92965
G1 X64.173 Y141.17 E10.02597
G1 X63.526 Y141.167 E10.04749
G1 X63.184 Y141.163 E10.05887
G1 X61.609 Y141.158 E10.11125
G1 X60.944 Y141.161 E10.13337
G1 X58.89 Y141.147 E10.20169
G1 X58.022 Y141.145 E10.23056
G1 X51.149 Y141.164 E10.45916
G1 X49.684 Y141.163 E10.50788
G1 X49.528 Y141.168 E10.51307
G1 X47.815 Y141.17 E10.57005
G1 X47.657 Y141.164 E10.57531
G1 X45.122 Y141.171 E10.65962
G1 X43.528 Y141.166 E10.71264
G1 X43.07 Y141.161 E10.72787
G1 X40.995 Y141.162 E10.79689
G1 X39.147 Y141.155 E10.85835
G1 X37.389 Y141.166 E10.91683
G1 X36.349 Y141.163 E10.95142
G1 X36.038 Y141.158 E10.96176
G1 X35.773 Y141.15 E10.97058
G1 X34.798 Y141.078 E11.0031
G1 X34.695 Y141.066 E11.00655
G1 X33.371 Y140.832 E11.05127
G1 X32.771 Y140.689 E11.07178
G1 X32.379 Y140.589 E11.08524
G1 X32.274 Y140.56 E11.08886
G1 X31.052 Y140.146 E11.13177
G1 X30.657 Y139.987 E11.14593
G1 X29.787 Y139.594 E11.17769
G1 X28.953 Y139.129 E11.20944
G1 X28.29 Y138.69 E11.23589
G1 X27.86 Y138.383 E11.25346
G1 X27.604 Y138.195 E11.26403
G1 X27.386 Y138.03 E11.27312
G1 X26.65 Y137.422 E11.30487
G1 X25.939 Y136.726 E11.33797
G1 X25.795 Y136.572 E11.34498
G1 X25.397 Y136.123 E11.36494
G1 X25.249 Y135.947 E11.37258
G1 X24.666 Y135.191 E11.40434
G1 X24.263 Y134.58 E11.42868
G1 X24.105 Y134.323 E11.43871
G1 X23.533 Y133.275 E11.47843
G1 X23.264 Y132.713 E11.49915
G1 X22.888 Y131.835 E11.53092
G1 X22.606 Y130.993 E11.56045
G1 X22.582 Y130.911 E11.56329
G1 X22.396 Y130.189 E11.58809
G1 X22.287 Y129.7 E11.60475
G1 X22.074 Y128.386 E11.64903
G1 X22.052 Y128.172 E11.65618
G1 X22.022 Y127.836 E11.6674
G1 X22.012 Y127.699 E11.67197
G1 X21.983 Y127.042 E11.69384
G1 X21.969 Y126.054 E11.72671
G1 X21.967 Y125.39 E11.74879
G1 X21.972 Y124.796 E11.76855
G1 X21.975 Y123.959 E11.79639
G1 X21.974 Y122.941 E11.83025
G1 X21.965 Y121.198 E11.88822
G1 X21.971 Y118.931 E11.96362
G1 X21.977 Y117.681 E12.0052
G1 X21.975 Y117.411 E12.01418
G1 X21.988 Y116.055 E12.05928
G1 X21.99 Y114.385 E12.11483
G1 X21.988 Y114.144 E12.12284
G1 X21.975 Y113.523 E12.1435
G1 X21.971 Y112.843 E12.16612
G1 X21.971 Y111.526 E12.20992
G1 X21.965 Y108.308 E12.31695
G1 X21.97 Y104.196 E12.45372
G1 X21.985 Y102.895 E12.49699
G1 X21.984 Y100.523 E12.57589
G1 X21.971 Y99.436 E12.61204
G1 X21.97 Y97.261 E12.68438
G1 X21.995 Y88.943 E12.96104
G1 X21.985 Y87.234 E13.01789
G1 X21.969 Y86.062 E13.05687
G1 X21.966 Y84.6 E13.1055
G1 X21.969 Y84.092 E13.12239
G1 X21.967 Y83.611 E13.13839
G1 X21.974 Y82.764 E13.16656
G1 X21.973 Y81.024 E13.22444
G1 X21.969 Y80.37 E13.24619
G1 X21.973 Y78.642 E13.30366
G1 X21.979 Y77.952 E13.32661
G1 X21.982 Y76.739 E13.36696
G1 X21.979 Y75.958 E13.39293
G1 X21.978 Y73.079 E13.48869
G1 X21.969 Y72.404 E13.51114
G1 X21.967 Y71.654 E13.53609
G1 X21.96 Y70.801 E13.56446
G1 X21.965 Y70.659 E13.56918
G1 X21.964 Y69.799 E13.59779
G1 X21.972 Y67.526 E13.67339
G1 X21.969 Y66.9 E13.69421
G1 X21.973 Y65.168 E13.75182
G1 X21.979 Y64.477 E13.7748
G1 X21.982 Y63.266 E13.81508
G1 X21.979 Y62.501 E13.84052
G1 X21.981 Y59.596 E13.93714
G1 X21.971 Y58.823 E13.96286
G1 X21.969 Y54.366 E14.1111
G1 X21.974 Y53.122 E14.15247
G1 X21.975 Y51.783 E14.19701
G1 X21.979 Y51.246 E14.21487
G1 X21.978 Y49.756 E14.26443
G1 X21.973 Y49.183 E14.28349
G1 X21.973 Y42.509 E14.50546
G1 X21.975 Y40.714 E14.56517
G1 X21.969 Y39.342 E14.6108
G1 X21.979 Y38.269 E14.64649
G1 X21.987 Y37.95 E14.6571
G1 X21.999 Y37.628 E14.66782
G1 X22.023 Y37.201 E14.68204
G1 X22.19 Y35.887 E14.7261
G1 X22.317 Y35.207 E14.74911
G1 X22.531 Y34.277 E14.78085
G1 X22.823 Y33.368 E14.8126
G1 X22.997 Y32.923 E14.82849
G1 X23.195 Y32.449 E14.84558
G1 X23.28 Y32.253 E14.85269
G1 X23.834 Y31.146 E14.89386
G1 X23.973 Y30.902 E14.9032
G1 X24.479 Y30.093 E14.93493
G1 X24.976 Y29.423 E14.96268
G1 X25.244 Y29.088 E14.97695
G1 X26.085 Y28.149 E15.01888
G1 X26.191 Y28.043 E15.02386
G1 X26.437 Y27.804 E15.03527
G0 F6000 X26.712 Y28.095
G1 F1200 X26.9 Y27.918 E15.04386
G1 X27.798 Y27.159 E15.08296
G1 X28.062 Y26.959 E15.09398
G1 X28.833 Y26.425 E15.12517
G1 X29.645 Y25.959 E15.15631
G1 X30.091 Y25.728 E15.17302
G1 X31.056 Y25.286 E15.20832
G1 X31.253 Y25.207 E15.21538
G1 X32.241 Y24.865 E15.25015
G1 X32.455 Y24.802 E15.25757
G1 X33.688 Y24.515 E15.29968
G1 X34.203 Y24.426 E15.31706
G1 X34.939 Y24.324 E15.34178
G1 X35.141 Y24.303 E15.34853
G1 X35.705 Y24.259 E15.36735
G1 X35.82 Y24.253 E15.37118
G1 X36.362 Y24.238 E15.38921
G1 X38.844 Y24.233 E15.47176
G1 X39.715 Y24.241 E15.50073
G1 X41.669 Y24.249 E15.56572
G1 X42.862 Y24.243 E15.6054
G1 X47.886 Y24.246 E15.7725
G1 X49.811 Y24.235 E15.83653
G1 X51.162 Y24.241 E15.88146
G1 X52.636 Y24.232 E15.93049
G1 X53.896 Y24.229 E15.9724
G1 X54.133 Y24.231 E15.98028
G1 X54.84 Y24.245 E16.0038
G1 X56.445 Y24.261 E16.05719
G1 X57.346 Y24.262 E16.08715
G1 X58.984 Y24.249 E16.14164
G1 X59.372 Y24.244 E16.15454
G1 X60.507 Y24.238 E16.19229
G1 X61.381 Y24.243 E16.22136
G1 X63.284 Y24.236 E16.28466
G1 X63.709 Y24.239 E16.29879
G1 X64.825 Y24.241 E16.33591
G1 X66.258 Y24.231 E16.38357
G1 X67.496 Y24.23 E16.42475
G1 X68.515 Y24.246 E16.45865
G1 X70.303 Y24.262 E16.51812
G1 X70.893 Y24.262 E16.53774
G1 X72.616 Y24.247 E16.59505
G1 X73.398 Y24.237 E16.62106
G1 X80.093 Y24.244 E16.84374
G1 X80.934 Y24.24 E16.87171
G1 X82.233 Y24.243 E16.91492
G1 X83.402 Y24.231 E16.9538
G1 X84.196 Y24.23 E16.98021
G1 X86.916 Y24.245 E17.07068
G1 X87.376 Y24.239 E17.08598
G1 X87.928 Y24.24 E17.10434
G1 X88.213 Y24.237 E17.11382
G1 X91.874 Y24.236 E17.23558
G1 X92.497 Y24.238 E17.2563
G1 X93.76 Y24.235 E17.29831
G1 X94.994 Y24.245 E17.33936
G1 X98.785 Y24.238 E17.46545
G1 X99.378 Y24.234 E17.48517
G1 X102.281 Y24.234 E17.58172
G1 X103.513 Y24.237 E17.6227
G1 X103.983 Y24.234 E17.63833
G1 X106.858 Y24.234 E17.73395
G1 X107.59 Y24.231 E17.7583
G1 X108.219 Y24.233 E17.77922
G1 X109.779 Y24.229 E17.83111
G1 X113.929 Y24.241 E17.96914
G1 X114.119 Y24.243 E17.97546
G1 X116.042 Y24.246 E18.03942
G1 X118.27 Y24.246 E18.11352
G1 X120.124 Y24.24 E18.17519
G1 X120.872 Y24.246 E18.20007
G1 X124.033 Y24.238 E18.3052
G1 X127.067 Y24.246 E18.40611
G1 X127.417 Y24.242 E18.41775
G1 X128.316 Y24.242 E18.44766
G1 X128.58 Y24.245 E18.45644
G1 X129.122 Y24.258 E18.47447
G1 X129.784 Y24.294 E18.49652
G1 X130.009 Y24.313 E18.50403
G1 X131.012 Y24.444 E18.53767
G1 X131.304 Y24.496 E18.54754
G1 X132.553 Y24.795 E18.59025
G1 X132.838 Y24.881 E18.60015
G1 X133.355 Y25.051 E18.61826
G1 X133.627 Y25.148 E18.62786
G1 X134.496 Y25.501 E18.65906
G1 X135.38 Y25.953 E18.69208
G1 X135.608 Y26.083 E18.70081
G1 X136.403 Y26.582 E18.73203
G1 X136.802 Y26.871 E18.74841
G1 X137.148 Y27.137 E18.76293
G1 X137.626 Y27.518 E18.78326
G1 X138.613 Y28.407 E18.82744
G1 X138.732 Y28.528 E18.83309
G1 X139.36 Y29.224 E18.86427
G1 X139.873 Y29.894 E18.89233
G1 X140.198 Y30.354 E18.91106
G1 X140.494 Y30.795 E18.92873
G1 X140.529 Y30.85 E18.9309
G1 X141.198 Y32.064 E18.977
G1 X141.339 Y32.363 E18.988
G1 X141.826 Y33.576 E19.03147
G1 X141.983 Y34.047 E19.04798
G1 X142.241 Y34.949 E19.07919
G1 X142.44 Y35.996 E19.11463
G1 X142.49 Y36.352 E19.12659
G1 X142.594 Y37.613 E19.16867
G1 X142.603 Y38.088 E19.18448
G1 X142.611 Y40.3 E19.25805
G1 X142.625 Y41.133 E19.28576
G1 X142.633 Y43.413 E19.36159
G1 X142.633 Y44.937 E19.41228
G1 X142.636 Y46.098 E19.45089
G1 X142.625 Y48.902 E19.54416
G1 X142.632 Y52.681 E19.66985
G1 X142.625 Y55.544 E19.76507
G1 X142.625 Y56.78 E19.80618
G1 X142.629 Y57.301 E19.82351
G1 X142.633 Y58.68 E19.86938
G1 X142.633 Y60.118 E19.9172
G1 X142.629 Y60.8 E19.93989
G1 X142.618 Y61.821 E19.97385
G1 X142.618 Y64.518 E20.06355
