;FLAVOR:Marlin
;TIME:370
;Filament used: 0.110826m
;Layer height: 0.2
;MINX:67.105
;MINY:67.107
;MINZ:0.2
;MAXX:97.893
;MAXY:97.895
;MAXZ:8
;Generated with Creality Slicer 4.8.0-147
M140 S70
M105
M190 S70
M104 S220
M105
M109 S220
M82 ;absolute extrusion mode
M201 X500.00 Y500.00 Z100.00 E5000.00 ;Setup machine max acceleration
M203 X500.00 Y500.00 Z10.00 E50.00 ;Setup machine max feedrate
M204 P500.00 R1000.00 T500.00 ;Setup Print/Retract/Travel acceleration
M205 X8.00 Y8.00 Z0.40 E5.00 ;Setup Jerk
M220 S100 ;Reset Feedrate
M221 S100 ;Reset Flowrate

G28 ;Home
M420 S1

G92 E0 ;Reset Extruder
G1 Z2.0 F3000 ;Move Z Axis up
G1 X10.1 Y20 Z0.28 F5000.0 ;Move to start position
G1 X10.1 Y150.0 Z0.28 F1500.0 E15 ;Draw the first line
G1 X10.4 Y150.0 Z0.28 F5000.0 ;Move to side a little
G1 X10.4 Y20 Z0.28 F1500.0 E30 ;Draw the second line
G92 E0 ;Reset Extruder
G1 Z2.0 F3000 ;Move Z Axis up

G92 E0
G92 E0
G1 F2400 E-4
;LAYER_COUNT:40
;LAYER:0
M107
G0 F6000 X71.553 Y71.678 Z0.2
;TYPE:SKIRT
G1 F2400 E0
G1 F1200 X71.699 Y71.532 E0.00687
G1 X72.044 Y71.201 E0.02277
G1 X72.131 Y71.121 E0.0267
G1 X72.603 Y70.71 E0.04752
G1 X72.874 Y70.487 E0.05919
G1 X73.678 Y69.883 E0.09264
G1 X73.808 Y69.794 E0.09788
G1 X74.257 Y69.502 E0.11569
G1 X74.597 Y69.292 E0.12898
G1 X75.394 Y68.843 E0.15941
G1 X75.605 Y68.735 E0.16729
G1 X76.425 Y68.355 E0.19735
G1 X76.632 Y68.269 E0.20481
G1 X77.143 Y68.072 E0.22302
G1 X77.515 Y67.938 E0.23617
G1 X78.426 Y67.652 E0.26793
G1 X78.947 Y67.525 E0.28577
G1 X79.254 Y67.458 E0.29622
G1 X79.72 Y67.367 E0.31201
G1 X80.12 Y67.297 E0.32552
G1 X81.285 Y67.154 E0.36455
G1 X81.555 Y67.135 E0.37356
G1 X82.456 Y67.107 E0.40354
G1 X82.682 Y67.109 E0.41106
G1 X83.45 Y67.142 E0.43662
G1 X83.921 Y67.178 E0.45233
G1 X84.884 Y67.293 E0.48459
G1 X85.056 Y67.321 E0.49039
G1 X86.104 Y67.543 E0.52602
G1 X86.556 Y67.661 E0.54155
G1 X87.62 Y67.995 E0.57865
G1 X88.157 Y68.193 E0.59768
G1 X89.038 Y68.56 E0.62943
G1 X89.538 Y68.809 E0.648
G1 X89.697 Y68.893 E0.65398
G1 X90.105 Y69.12 E0.66951
G1 X90.447 Y69.319 E0.68267
G1 X91.502 Y70.013 E0.72467
G1 X91.672 Y70.139 E0.73171
G1 X92.045 Y70.428 E0.74741
G1 X92.372 Y70.692 E0.76138
G1 X93.151 Y71.382 E0.796
G1 X93.287 Y71.514 E0.8023
G1 X93.791 Y72.035 E0.82641
G1 X93.986 Y72.25 E0.83606
G1 X94.62 Y73.013 E0.86906
G1 X94.876 Y73.35 E0.88314
G1 X95.225 Y73.836 E0.90304
G1 X95.463 Y74.197 E0.91742
G1 X95.601 Y74.415 E0.926
G1 X96.287 Y75.665 E0.97342
G1 X96.512 Y76.144 E0.99102
G1 X96.691 Y76.542 E1.00554
G1 X97.09 Y77.596 E1.04302
G1 X97.195 Y77.921 E1.05438
G1 X97.525 Y79.186 E1.09787
G1 X97.634 Y79.73 E1.11632
G1 X97.718 Y80.198 E1.13213
G1 X97.865 Y81.55 E1.17737
G1 X97.882 Y81.902 E1.18909
G1 X97.893 Y82.247 E1.20057
G1 X97.887 Y83.017 E1.22618
G1 X97.874 Y83.322 E1.23633
G1 X97.737 Y84.664 E1.2812
G1 X97.636 Y85.286 E1.30216
G1 X97.443 Y86.221 E1.33391
G1 X97.136 Y87.245 E1.36947
G1 X96.986 Y87.671 E1.38449
G1 X96.87 Y87.985 E1.39562
G1 X96.732 Y88.343 E1.40838
G1 X96.197 Y89.527 E1.4516
G1 X96.061 Y89.787 E1.46136
G1 X95.365 Y90.944 E1.50627
G1 X95.076 Y91.366 E1.52328
G1 X94.504 Y92.13 E1.55502
G1 X94.305 Y92.374 E1.56549
G1 X93.887 Y92.859 E1.58679
G1 X93.707 Y93.056 E1.59566
G1 X93.061 Y93.708 E1.62619
G1 X92.959 Y93.803 E1.63083
G1 X92.145 Y94.493 E1.66632
G1 X91.649 Y94.875 E1.68714
G1 X90.847 Y95.439 E1.71975
G1 X90.755 Y95.498 E1.72339
G1 X90.266 Y95.795 E1.74242
G1 X90.025 Y95.933 E1.75165
G1 X89.144 Y96.388 E1.78463
G1 X88.839 Y96.529 E1.79581
G1 X87.967 Y96.889 E1.82719
G1 X87.696 Y96.988 E1.83678
G1 X86.725 Y97.294 E1.87064
G1 X86.319 Y97.4 E1.8846
G1 X85.886 Y97.506 E1.89943
G1 X84.887 Y97.704 E1.9333
G1 X84.571 Y97.752 E1.94393
G1 X83.522 Y97.862 E1.97901
G1 X83.299 Y97.875 E1.98644
G1 X82.699 Y97.894 E2.00641
G1 X82.518 Y97.895 E2.01243
G1 X81.989 Y97.885 E2.03002
G1 X81.72 Y97.874 E2.03898
G1 X80.714 Y97.789 E2.07256
G1 X80.307 Y97.736 E2.08621
G1 X79.861 Y97.669 E2.10121
G1 X78.87 Y97.462 E2.13488
G1 X78.604 Y97.394 E2.14401
G1 X78.168 Y97.274 E2.15905
G1 X77.25 Y96.973 E2.19119
G1 X77.048 Y96.897 E2.19836
G1 X76.746 Y96.778 E2.20916
G1 X76.504 Y96.679 E2.21786
G1 X75.839 Y96.382 E2.24208
G1 X75.734 Y96.331 E2.24596
G1 X75.306 Y96.112 E2.26195
G1 X75.024 Y95.96 E2.27261
G1 X73.859 Y95.238 E2.31819
G1 X73.394 Y94.898 E2.33735
G1 X73.064 Y94.643 E2.35123
G1 X72.8 Y94.432 E2.36247
G1 X72.431 Y94.129 E2.37835
G1 X71.72 Y93.493 E2.41007
G1 X71.319 Y93.084 E2.42913
G1 X71.159 Y92.912 E2.43694
G1 X70.791 Y92.497 E2.45539
G1 X70.721 Y92.414 E2.459
G1 X70.186 Y91.727 E2.48796
G1 X69.823 Y91.223 E2.50862
G1 X69.266 Y90.372 E2.54245
G1 X69.234 Y90.318 E2.54453
G1 X68.765 Y89.442 E2.57758
G1 X68.496 Y88.882 E2.59825
G1 X67.989 Y87.647 E2.64265
G1 X67.908 Y87.411 E2.65095
G1 X67.645 Y86.529 E2.68156
G1 X67.522 Y86.047 E2.6981
G1 X67.267 Y84.727 E2.74282
G1 X67.228 Y84.433 E2.75268
G1 X67.166 Y83.852 E2.77212
G1 X67.142 Y83.555 E2.78203
G1 X67.105 Y82.637 E2.81259
G1 X67.105 Y82.322 E2.82306
G1 X67.129 Y81.576 E2.84789
G1 X67.137 Y81.454 E2.85195
G1 X67.182 Y80.952 E2.86872
G1 X67.208 Y80.716 E2.87661
G1 X67.352 Y79.77 E2.90844
G1 X67.423 Y79.408 E2.92071
G1 X67.679 Y78.365 E2.95643
G1 X67.846 Y77.801 E2.97599
G1 X68.155 Y76.898 E3.00774
G1 X68.445 Y76.22 E3.03226
G1 X68.535 Y76.027 E3.03935
G1 X68.749 Y75.592 E3.05547
G1 X68.979 Y75.149 E3.07207
G1 X69.631 Y74.049 E3.1146
G1 X69.731 Y73.9 E3.12057
G1 X70.056 Y73.441 E3.13928
G1 X70.287 Y73.131 E3.15214
G1 X71.004 Y72.262 E3.18961
G1 X71.19 Y72.058 E3.19879
G1 X71.553 Y71.678 E3.21627
G0 F6000 X71.836 Y71.961
G1 F1200 X71.982 Y71.815 E3.22314
G1 X72.314 Y71.496 E3.23845
G1 X72.401 Y71.416 E3.24238
G1 X72.858 Y71.019 E3.26251
G1 X73.129 Y70.796 E3.27419
G1 X73.904 Y70.213 E3.30644
G1 X74.034 Y70.124 E3.31168
G1 X74.468 Y69.842 E3.3289
G1 X74.808 Y69.632 E3.34219
G1 X75.576 Y69.199 E3.37151
G1 X75.787 Y69.091 E3.3794
G1 X76.579 Y68.725 E3.40842
G1 X76.786 Y68.639 E3.41587
G1 X77.278 Y68.448 E3.43342
G1 X77.65 Y68.314 E3.44658
G1 X78.545 Y68.034 E3.47777
G1 X79.033 Y67.916 E3.49446
G1 X79.34 Y67.849 E3.50492
G1 X79.789 Y67.761 E3.52013
G1 X80.189 Y67.691 E3.53364
G1 X81.313 Y67.553 E3.57131
G1 X81.583 Y67.534 E3.58031
G1 X82.452 Y67.507 E3.60922
G1 X82.678 Y67.509 E3.61674
G1 X83.419 Y67.541 E3.64141
G1 X83.89 Y67.577 E3.65712
G1 X84.819 Y67.688 E3.68824
G1 X84.991 Y67.716 E3.69404
G1 X86.003 Y67.93 E3.72844
G1 X86.455 Y68.048 E3.74398
G1 X87.481 Y68.37 E3.77974
G1 X88.018 Y68.568 E3.79878
G1 X88.884 Y68.93 E3.83
G1 X89.351 Y69.163 E3.84736
G1 X89.51 Y69.247 E3.85334
G1 X89.904 Y69.465 E3.86831
G1 X90.246 Y69.664 E3.88147
G1 X91.264 Y70.335 E3.92203
G1 X91.434 Y70.461 E3.92906
G1 X91.794 Y70.739 E3.94419
G1 X92.121 Y71.003 E3.95817
G1 X92.872 Y71.669 E3.99156
G1 X93.008 Y71.801 E3.99786
G1 X93.495 Y72.304 E4.02115
G1 X93.69 Y72.519 E4.0308
G1 X94.301 Y73.255 E4.06262
G1 X94.557 Y73.592 E4.07669
G1 X94.895 Y74.062 E4.09595
G1 X95.125 Y74.41 E4.10982
G1 X95.263 Y74.628 E4.1184
G1 X95.925 Y75.835 E4.16419
G1 X96.15 Y76.314 E4.18179
G1 X96.324 Y76.702 E4.19593
G1 X96.709 Y77.719 E4.2321
G1 X96.814 Y78.044 E4.24346
G1 X97.133 Y79.265 E4.28544
G1 X97.242 Y79.809 E4.30389
G1 X97.324 Y80.265 E4.3193
G1 X97.465 Y81.569 E4.36292
G1 X97.492 Y82.177 E4.38316
G1 X97.494 Y82.257 E4.38583
G1 X97.487 Y83 E4.41054
G1 X97.474 Y83.305 E4.42069
G1 X97.342 Y84.6 E4.46399
G1 X97.241 Y85.222 E4.48495
G1 X97.051 Y86.141 E4.51616
G1 X96.759 Y87.112 E4.54988
G1 X96.609 Y87.538 E4.56491
G1 X96.497 Y87.841 E4.57565
G1 X96.359 Y88.199 E4.58841
G1 X95.842 Y89.341 E4.6301
G1 X95.706 Y89.601 E4.63986
G1 X95.035 Y90.718 E4.6832
G1 X94.746 Y91.14 E4.70022
G1 X94.194 Y91.877 E4.73084
G1 X93.995 Y92.121 E4.74131
G1 X93.592 Y92.589 E4.76185
G1 X93.412 Y92.786 E4.77073
G1 X92.788 Y93.415 E4.8002
G1 X92.686 Y93.51 E4.80484
G1 X91.901 Y94.176 E4.83908
G1 X91.405 Y94.558 E4.8599
G1 X90.631 Y95.102 E4.89136
G1 X90.539 Y95.161 E4.895
G1 X90.067 Y95.448 E4.91337
G1 X89.826 Y95.586 E4.92261
G1 X88.976 Y96.025 E4.95443
G1 X88.671 Y96.166 E4.9656
G1 X87.829 Y96.513 E4.99589
G1 X87.558 Y96.612 E5.00549
G1 X86.622 Y96.908 E5.03814
G1 X86.224 Y97.012 E5.05182
G1 X85.791 Y97.118 E5.06665
G1 X84.827 Y97.308 E5.09933
G1 X84.511 Y97.356 E5.10996
G1 X83.499 Y97.462 E5.1438
G1 X83.276 Y97.475 E5.15123
G1 X82.697 Y97.494 E5.1705
G1 X82.516 Y97.495 E5.17652
G1 X82.006 Y97.486 E5.19349
G1 X81.737 Y97.475 E5.20244
G1 X80.766 Y97.392 E5.23485
G1 X80.359 Y97.339 E5.24851
G1 X79.926 Y97.274 E5.26307
G1 X78.969 Y97.074 E5.29559
G1 X78.439 Y96.936 E5.3138
G1 X78.276 Y96.89 E5.31943
G1 X77.39 Y96.598 E5.35046
G1 X77.188 Y96.522 E5.35764
G1 X76.897 Y96.408 E5.36804
G1 X76.655 Y96.309 E5.37673
G1 X76.014 Y96.023 E5.40008
G1 X75.909 Y95.972 E5.40396
G1 X75.496 Y95.76 E5.4194
G1 X75.214 Y95.608 E5.43006
G1 X74.089 Y94.912 E5.47406
G1 X74.021 Y94.864 E5.47682
G1 X73.639 Y94.581 E5.49264
G1 X73.309 Y94.326 E5.50651
G1 X73.054 Y94.123 E5.51735
G1 X72.685 Y93.82 E5.53323
G1 X71.987 Y93.195 E5.56439
G1 X71.612 Y92.811 E5.58224
G1 X71.452 Y92.639 E5.59006
G1 X71.097 Y92.239 E5.60784
G1 X71.027 Y92.156 E5.61145
G1 X70.51 Y91.493 E5.63942
G1 X70.147 Y90.989 E5.66008
G1 X69.61 Y90.168 E5.69271
G1 X69.578 Y90.114 E5.69479
G1 X69.126 Y89.269 E5.72667
G1 X68.857 Y88.709 E5.74733
G1 X68.368 Y87.517 E5.79018
G1 X68.287 Y87.281 E5.79848
G1 X68.033 Y86.43 E5.82802
G1 X67.91 Y85.948 E5.84456
G1 X67.664 Y84.675 E5.88769
G1 X67.625 Y84.381 E5.89755
G1 X67.565 Y83.82 E5.91632
G1 X67.541 Y83.523 E5.92623
G1 X67.505 Y82.637 E5.95572
G1 X67.505 Y82.322 E5.9662
G1 X67.529 Y81.602 E5.99016
G1 X67.537 Y81.48 E5.99422
G1 X67.579 Y80.995 E6.01042
G1 X67.605 Y80.759 E6.01831
G1 X67.745 Y79.847 E6.049
G1 X67.816 Y79.485 E6.06127
G1 X68.063 Y78.479 E6.09572
G1 X68.23 Y77.915 E6.11529
G1 X68.534 Y77.028 E6.14647
G1 X68.808 Y76.389 E6.1696
G1 X68.898 Y76.196 E6.17668
G1 X69.104 Y75.776 E6.19224
G1 X69.334 Y75.333 E6.20884
G1 X69.963 Y74.272 E6.24987
G1 X70.063 Y74.123 E6.25583
G1 X70.377 Y73.68 E6.2739
G1 X70.608 Y73.37 E6.28675
G1 X71.299 Y72.532 E6.32288
G1 X71.485 Y72.328 E6.33206
G1 X71.836 Y71.961 E6.34895
G0 F6000 X72.119 Y72.244
G1 F1200 X72.265 Y72.098 E6.35582
G1 X72.585 Y71.79 E6.37059
G1 X72.672 Y71.71 E6.37452
G1 X73.112 Y71.328 E6.3939
G1 X73.383 Y71.105 E6.40558
G1 X74.13 Y70.543 E6.43667
G1 X74.26 Y70.454 E6.44191
G1 X74.678 Y70.183 E6.45848
G1 X75.018 Y69.973 E6.47177
G1 X75.758 Y69.555 E6.50004
G1 X75.969 Y69.447 E6.50792
G1 X76.732 Y69.094 E6.53588
G1 X76.939 Y69.008 E6.54334
G1 X77.414 Y68.824 E6.56028
G1 X77.786 Y68.69 E6.57343
G1 X78.665 Y68.416 E6.60405
G1 X79.118 Y68.307 E6.61955
G1 X79.425 Y68.24 E6.63
G1 X79.858 Y68.155 E6.64468
G1 X80.258 Y68.085 E6.65818
G1 X81.341 Y67.952 E6.69447
G1 X81.611 Y67.933 E6.70348
G1 X82.449 Y67.907 E6.73136
G1 X82.675 Y67.909 E6.73888
G1 X83.389 Y67.94 E6.76265
G1 X83.86 Y67.976 E6.77836
G1 X84.755 Y68.083 E6.80834
G1 X84.927 Y68.111 E6.81414
G1 X85.902 Y68.317 E6.84728
G1 X86.354 Y68.435 E6.86282
G1 X87.343 Y68.746 E6.8973
G1 X87.88 Y68.944 E6.91634
G1 X88.729 Y69.299 E6.94694
G1 X89.164 Y69.517 E6.96313
G1 X89.323 Y69.601 E6.96911
G1 X89.703 Y69.811 E6.98355
G1 X90.045 Y70.01 E6.99671
G1 X91.026 Y70.656 E7.03578
G1 X91.196 Y70.782 E7.04281
G1 X91.543 Y71.05 E7.0574
G1 X91.87 Y71.314 E7.07138
G1 X92.594 Y71.956 E7.10356
G1 X92.73 Y72.088 E7.10986
G1 X93.199 Y72.573 E7.1323
G1 X93.394 Y72.788 E7.14196
G1 X93.983 Y73.497 E7.17261
G1 X94.239 Y73.834 E7.18669
G1 X94.566 Y74.289 E7.20533
G1 X94.787 Y74.624 E7.21867
G1 X94.925 Y74.842 E7.22726
G1 X95.563 Y76.005 E7.27138
G1 X95.788 Y76.484 E7.28898
G1 X95.957 Y76.862 E7.30275
G1 X96.329 Y77.842 E7.33761
G1 X96.434 Y78.167 E7.34897
G1 X96.74 Y79.343 E7.38939
G1 X96.849 Y79.887 E7.40784
G1 X96.929 Y80.331 E7.42285
G1 X97.066 Y81.589 E7.46494
G1 X97.083 Y81.941 E7.47666
G1 X97.094 Y82.267 E7.48751
G1 X97.087 Y82.983 E7.51132
G1 X97.074 Y83.288 E7.52148
G1 X96.947 Y84.536 E7.5632
G1 X96.846 Y85.158 E7.58416
G1 X96.659 Y86.059 E7.61476
G1 X96.381 Y86.98 E7.64676
G1 X96.231 Y87.406 E7.66178
G1 X96.124 Y87.698 E7.67213
G1 X95.986 Y88.056 E7.68489
G1 X95.488 Y89.156 E7.72505
G1 X95.352 Y89.416 E7.73481
G1 X94.705 Y90.492 E7.77657
G1 X94.416 Y90.914 E7.79358
G1 X93.884 Y91.624 E7.82309
G1 X93.685 Y91.868 E7.83356
G1 X93.296 Y92.319 E7.85337
G1 X93.116 Y92.516 E7.86224
G1 X92.515 Y93.123 E7.89065
G1 X92.413 Y93.218 E7.89529
G1 X91.657 Y93.859 E7.92826
G1 X91.161 Y94.241 E7.94908
G1 X90.415 Y94.766 E7.97942
G1 X90.323 Y94.825 E7.98306
G1 X89.868 Y95.101 E8.00076
G1 X89.627 Y95.239 E8.00999
G1 X88.808 Y95.662 E8.04065
G1 X88.503 Y95.803 E8.05183
G1 X87.692 Y96.137 E8.081
G1 X87.421 Y96.236 E8.09059
G1 X86.519 Y96.521 E8.12206
G1 X86.128 Y96.623 E8.1355
G1 X85.695 Y96.729 E8.15032
G1 X84.767 Y96.913 E8.18179
G1 X84.451 Y96.961 E8.19242
G1 X83.476 Y97.063 E8.22503
G1 X83.253 Y97.076 E8.23246
G1 X82.695 Y97.094 E8.25103
G1 X82.514 Y97.095 E8.25705
G1 X82.022 Y97.086 E8.27341
G1 X81.753 Y97.075 E8.28237
G1 X80.817 Y96.995 E8.31361
G1 X80.41 Y96.942 E8.32726
G1 X79.99 Y96.879 E8.34139
G1 X79.068 Y96.687 E8.37271
G1 X78.802 Y96.619 E8.38184
G1 X78.385 Y96.505 E8.39622
G1 X77.531 Y96.224 E8.42612
G1 X77.329 Y96.148 E8.4333
G1 X77.048 Y96.038 E8.44334
G1 X76.806 Y95.939 E8.45204
G1 X76.189 Y95.663 E8.47452
G1 X76.084 Y95.612 E8.4784
G1 X75.686 Y95.408 E8.49327
G1 X75.404 Y95.256 E8.50393
G1 X74.32 Y94.585 E8.54633
G1 X74.252 Y94.537 E8.5491
G1 X73.884 Y94.265 E8.56432
G1 X73.554 Y94.01 E8.57819
G1 X73.308 Y93.814 E8.58865
G1 X72.939 Y93.511 E8.60453
G1 X72.254 Y92.896 E8.63515
G1 X71.905 Y92.539 E8.65176
G1 X71.745 Y92.367 E8.65957
G1 X71.403 Y91.981 E8.67672
G1 X71.333 Y91.898 E8.68033
G1 X70.835 Y91.259 E8.70728
G1 X70.472 Y90.755 E8.72794
G1 X69.954 Y89.964 E8.75939
G1 X69.922 Y89.91 E8.76147
G1 X69.486 Y89.096 E8.79219
G1 X69.217 Y88.536 E8.81285
G1 X68.746 Y87.387 E8.85415
G1 X68.665 Y87.151 E8.86245
G1 X68.42 Y86.331 E8.89091
G1 X68.297 Y85.849 E8.90746
G1 X68.06 Y84.622 E8.94902
G1 X68.021 Y84.328 E8.95889
G1 X67.963 Y83.788 E8.97695
G1 X67.939 Y83.491 E8.98686
G1 X67.905 Y82.637 E9.01529
G1 X67.905 Y82.322 E9.02577
G1 X67.928 Y81.628 E9.04886
G1 X67.936 Y81.506 E9.05293
G1 X67.977 Y81.039 E9.06852
G1 X68.003 Y80.803 E9.07642
G1 X68.137 Y79.924 E9.10599
G1 X68.208 Y79.562 E9.11826
G1 X68.446 Y78.593 E9.15145
G1 X68.613 Y78.029 E9.17101
G1 X68.913 Y77.158 E9.20165
G1 X69.17 Y76.558 E9.22336
G1 X69.26 Y76.365 E9.23044
G1 X69.459 Y75.961 E9.24542
G1 X69.689 Y75.518 E9.26202
G1 X70.295 Y74.495 E9.30157
G1 X70.395 Y74.346 E9.30754
G1 X70.697 Y73.919 E9.32493
G1 X70.928 Y73.609 E9.33779
G1 X71.595 Y72.801 E9.37264
G1 X71.781 Y72.597 E9.38182
G1 X72.119 Y72.244 E9.39808
G0 F6000 X72.402 Y72.527
G1 F1200 X72.548 Y72.381 E9.40495
G1 X72.856 Y72.085 E9.41915
G1 X72.943 Y72.005 E9.42308
G1 X73.366 Y71.637 E9.44173
G1 X73.637 Y71.414 E9.45341
G1 X74.356 Y70.873 E9.48333
G1 X74.486 Y70.784 E9.48857
G1 X74.888 Y70.523 E9.50451
G1 X75.228 Y70.313 E9.51781
G1 X75.941 Y69.911 E9.54503
G1 X76.152 Y69.803 E9.55291
G1 X76.886 Y69.464 E9.5798
G1 X77.093 Y69.378 E9.58726
G1 X77.549 Y69.201 E9.60353
G1 X77.921 Y69.067 E9.61668
G1 X79.203 Y68.698 E9.66105
G1 X79.51 Y68.631 E9.6715
G1 X79.927 Y68.549 E9.68564
G1 X80.327 Y68.479 E9.69914
G1 X81.369 Y68.351 E9.73406
G1 X81.639 Y68.332 E9.74306
G1 X82.445 Y68.307 E9.76988
G1 X82.671 Y68.309 E9.7774
G1 X83.358 Y68.339 E9.80027
G1 X83.829 Y68.375 E9.81598
G1 X84.691 Y68.478 E9.84486
G1 X84.863 Y68.506 E9.85065
G1 X85.8 Y68.704 E9.88251
G1 X86.252 Y68.822 E9.89804
G1 X87.205 Y69.121 E9.93126
G1 X87.742 Y69.319 E9.9503
G1 X88.978 Y69.87 E9.99531
