;FLAVOR:Marlin
;TIME:24978
;Filament used: 14.2712m
;Layer height: 0.2
;MINX:21.971
;MINY:23.809
;MINZ:0.2
;MAXX:143.031
;MAXY:141.158
;MAXZ:22.8
;Generated with Creality Slicer 4.8.0-147
M140 S70
M105
M190 S70
M104 S220
M105
M109 S220
M82 ;absolute extrusion mode
M201 X500.00 Y500.00 Z100.00 E5000.00 ;Setup machine max acceleration
M203 X500.00 Y500.00 Z10.00 E50.00 ;Setup machine max feedrate
M204 P500.00 R1000.00 T500.00 ;Setup Print/Retract/Travel acceleration
M205 X8.00 Y8.00 Z0.40 E5.00 ;Setup Jerk
M220 S100 ;Reset Feedrate
M221 S100 ;Reset Flowrate

G28 ;Home
M420 S1

G92 E0 ;Reset Extruder
G1 Z2.0 F3000 ;Move Z Axis up
G1 X10.1 Y20 Z0.28 F5000.0 ;Move to start position
G1 X10.1 Y150.0 Z0.28 F1500.0 E15 ;Draw the first line
G1 X10.4 Y150.0 Z0.28 F5000.0 ;Move to side a little
G1 X10.4 Y20 Z0.28 F1500.0 E30 ;Draw the second line
G92 E0 ;Reset Extruder
G1 Z2.0 F3000 ;Move Z Axis up

G92 E0
G92 E0
G1 F2400 E-4
;LAYER_COUNT:114
;LAYER:0
M107
G0 F6000 X26.765 Y27.504 Z0.2
;TYPE:SKIRT
G1 F2400 E0
G1 F1200 X27.479 Y26.871 E0.03174
G1 X28.244 Y26.3 E0.06349
G1 X29.39 Y25.612 E0.10794
G1 X29.69 Y25.455 E0.11921
G1 X30.148 Y25.228 E0.13621
G1 X30.302 Y25.156 E0.14186
G1 X31.397 Y24.712 E0.18116
G1 X31.648 Y24.625 E0.19
G1 X32.002 Y24.508 E0.2024
G1 X32.292 Y24.418 E0.2125
G1 X33.215 Y24.174 E0.24425
G1 X33.845 Y24.053 E0.26559
G1 X34.036 Y24.022 E0.27202
G1 X34.538 Y23.952 E0.28888
G1 X34.974 Y23.901 E0.30348
G1 X35.969 Y23.829 E0.33666
G1 X36.315 Y23.819 E0.34818
G1 X36.634 Y23.814 E0.35879
G1 X40.012 Y23.811 E0.47114
G1 X126.067 Y23.811 E3.33334
G1 X126.622 Y23.809 E3.3518
G1 X128.188 Y23.811 E3.40388
G1 X128.88 Y23.822 E3.4269
G1 X129.833 Y23.878 E3.45866
G1 X130.455 Y23.957 E3.47951
G1 X130.936 Y24.032 E3.4957
G1 X131.461 Y24.127 E3.51345
G1 X131.696 Y24.175 E3.52142
G1 X132.657 Y24.415 E3.55437
G1 X132.957 Y24.504 E3.56478
G1 X133.965 Y24.855 E3.60028
G1 X134.408 Y25.033 E3.61616
G1 X135.279 Y25.426 E3.64794
G1 X136.113 Y25.89 E3.67968
G1 X136.723 Y26.291 E3.70396
G1 X136.97 Y26.465 E3.71401
G1 X137.443 Y26.817 E3.73362
G1 X137.587 Y26.93 E3.73971
G1 X138.312 Y27.55 E3.77144
G1 X138.768 Y27.998 E3.7927
G1 X139.081 Y28.327 E3.8078
G1 X139.481 Y28.761 E3.82743
G1 X140.098 Y29.49 E3.8592
G1 X140.652 Y30.267 E3.89094
G1 X141.214 Y31.231 E3.92805
G1 X141.267 Y31.333 E3.93187
G1 X141.486 Y31.778 E3.94837
G1 X141.621 Y32.068 E3.95901
G1 X141.848 Y32.589 E3.97791
G1 X141.98 Y32.914 E3.98958
G1 X142.206 Y33.52 E4.01109
G1 X142.248 Y33.643 E4.01541
G1 X142.436 Y34.245 E4.03639
G1 X142.534 Y34.594 E4.04845
G1 X142.753 Y35.523 E4.08019
G1 X142.863 Y36.208 E4.10327
G1 X142.9 Y36.493 E4.11283
G1 X142.978 Y37.339 E4.14108
G1 X142.991 Y37.577 E4.14901
G1 X143.008 Y38.123 E4.16718
G1 X143.013 Y38.875 E4.19219
G1 X143.012 Y39.125 E4.20051
G1 X142.992 Y40.433 E4.24402
G1 X142.992 Y42.627 E4.31699
G1 X142.986 Y42.771 E4.32178
G1 X142.999 Y45.483 E4.41198
G1 X143.017 Y47.352 E4.47415
G1 X143.013 Y49.224 E4.53641
G1 X143.017 Y50.331 E4.57323
G1 X143.029 Y51.675 E4.61794
G1 X143.025 Y52.995 E4.66184
G1 X143.02 Y53.338 E4.67325
G1 X143.021 Y54.997 E4.72843
G1 X143.009 Y56.866 E4.79059
G1 X143.004 Y58.834 E4.85605
G1 X143.012 Y59.871 E4.89054
G1 X143.016 Y62.129 E4.96564
G1 X143.024 Y62.407 E4.97489
G1 X143.022 Y64.114 E5.03167
G1 X143.026 Y64.383 E5.04062
G1 X143.029 Y65.148 E5.06606
G1 X143.023 Y66.615 E5.11485
G1 X143.013 Y67.242 E5.13571
G1 X143 Y69.044 E5.19565
G1 X143.002 Y69.932 E5.22518
G1 X143.009 Y70.457 E5.24264
G1 X143.005 Y71.942 E5.29204
G1 X143.012 Y73.773 E5.35294
G1 X143.027 Y74.958 E5.39235
G1 X143.029 Y76.039 E5.42831
G1 X143.027 Y76.473 E5.44274
G1 X143.031 Y76.622 E5.4477
G1 X143.019 Y78.649 E5.51512
G1 X143.003 Y79.565 E5.54559
G1 X142.992 Y81.295 E5.60313
G1 X142.982 Y84.597 E5.71296
G1 X142.991 Y88.75 E5.85109
G1 X142.988 Y92.306 E5.96936
G1 X142.993 Y93.355 E6.00425
G1 X143.01 Y95.031 E6.06
G1 X143.012 Y95.888 E6.0885
G1 X143.009 Y97.246 E6.13367
G1 X142.999 Y98.37 E6.17105
G1 X143.011 Y100.765 E6.25071
G1 X143.018 Y101.77 E6.28414
G1 X143.012 Y103.02 E6.32571
G1 X142.994 Y103.907 E6.35522
G1 X142.976 Y105.547 E6.40977
G1 X142.975 Y106.187 E6.43106
G1 X142.992 Y107.556 E6.4766
G1 X143.009 Y109.77 E6.55024
G1 X143.004 Y110.547 E6.57608
G1 X143.01 Y111.089 E6.59411
G1 X143.007 Y112.291 E6.63409
G1 X143.011 Y114.492 E6.70729
G1 X142.988 Y115.991 E6.75715
G1 X142.988 Y116.847 E6.78563
G1 X142.985 Y117.099 E6.79401
G1 X142.984 Y118.438 E6.83854
G1 X142.992 Y123.213 E6.99736
G1 X142.986 Y125.755 E7.08191
G1 X142.983 Y125.981 E7.08942
G1 X142.945 Y127.547 E7.14153
G1 X142.882 Y128.499 E7.17326
G1 X142.739 Y129.443 E7.20501
G1 X142.518 Y130.372 E7.23678
G1 X142.205 Y131.318 E7.26992
G1 X141.911 Y132.092 E7.29745
G1 X141.767 Y132.454 E7.31041
G1 X141.629 Y132.783 E7.32228
G1 X141.035 Y133.992 E7.36708
G1 X140.869 Y134.285 E7.37828
G1 X140.364 Y135.096 E7.41006
G1 X139.793 Y135.861 E7.44181
G1 X139.382 Y136.339 E7.46278
G1 X139.291 Y136.439 E7.46727
G1 X138.982 Y136.765 E7.48221
G1 X138.789 Y136.961 E7.49136
G1 X137.855 Y137.81 E7.53334
G1 X137.567 Y138.044 E7.54568
G1 X136.702 Y138.681 E7.58141
G1 X136.501 Y138.815 E7.58945
G1 X135.685 Y139.311 E7.62121
G1 X134.584 Y139.844 E7.66189
G1 X134.355 Y139.94 E7.67015
G1 X134.049 Y140.063 E7.68112
G1 X133.73 Y140.186 E7.69249
G1 X133.415 Y140.302 E7.70366
G1 X133.273 Y140.352 E7.70867
G1 X132.292 Y140.648 E7.74275
G1 X131.906 Y140.746 E7.75599
G1 X130.972 Y140.942 E7.78773
G1 X130.024 Y141.06 E7.81951
G1 X129.403 Y141.093 E7.84019
G1 X128.187 Y141.124 E7.88065
G1 X126.199 Y141.141 E7.94677
G1 X125.139 Y141.139 E7.98203
G1 X124.148 Y141.13 E8.01499
G1 X122.624 Y141.128 E8.06568
G1 X120.919 Y141.139 E8.12239
G1 X119.005 Y141.137 E8.18605
G1 X118.372 Y141.134 E8.2071
G1 X116.855 Y141.121 E8.25756
G1 X115.152 Y141.122 E8.3142
G1 X114.256 Y141.127 E8.344
G1 X112.008 Y141.126 E8.41877
G1 X109.915 Y141.144 E8.48839
G1 X109.646 Y141.143 E8.49734
G1 X109.382 Y141.139 E8.50612
G1 X107.493 Y141.14 E8.56895
G1 X107.37 Y141.135 E8.57304
G1 X106.536 Y141.139 E8.60078
G1 X106.185 Y141.135 E8.61245
G1 X105.66 Y141.121 E8.62992
G1 X102.561 Y141.095 E8.733
G1 X99.269 Y141.118 E8.84249
G1 X98.13 Y141.123 E8.88038
G1 X96.936 Y141.135 E8.92009
G1 X96.534 Y141.142 E8.93346
G1 X95.767 Y141.15 E8.95898
G1 X94.135 Y141.154 E9.01326
G1 X92.531 Y141.142 E9.06661
G1 X91.477 Y141.138 E9.10166
G1 X90.719 Y141.14 E9.12688
G1 X90.224 Y141.138 E9.14334
G1 X89.137 Y141.143 E9.17949
G1 X86.489 Y141.12 E9.26757
G1 X82.137 Y141.134 E9.41232
G1 X80.691 Y141.131 E9.46041
G1 X80.167 Y141.134 E9.47784
G1 X77.852 Y141.13 E9.55484
G1 X77.435 Y141.141 E9.56871
G1 X76.181 Y141.128 E9.61042
G1 X75.719 Y141.133 E9.62579
G1 X73.463 Y141.135 E9.70083
G1 X72.48 Y141.129 E9.73352
G1 X69.927 Y141.136 E9.81843
G1 X69.529 Y141.143 E9.83167
G1 X68.333 Y141.153 E9.87145
G1 X67.546 Y141.156 E9.89763
G1 X67.342 Y141.148 E9.90442
G1 X66.237 Y141.15 E9.94117
G1 X60.731 Y141.114 E10.12431
G1 X59.766 Y141.113 E10.1564
G1 X57.635 Y141.122 E10.22728
G1 X56.092 Y141.14 E10.27861
G1 X53.803 Y141.146 E10.35474
G1 X53.287 Y141.142 E10.3719
G1 X52.031 Y141.15 E10.41368
G1 X51.758 Y141.158 E10.42276
G1 X51.154 Y141.157 E10.44285
G1 X50.826 Y141.143 E10.45377
G1 X50.143 Y141.145 E10.47649
G1 X49.515 Y141.144 E10.49737
G1 X47.908 Y141.147 E10.55082
G1 X47.672 Y141.145 E10.55867
G1 X46.754 Y141.128 E10.58921
G1 X44.329 Y141.112 E10.66987
G1 X43.2 Y141.119 E10.70742
G1 X42.437 Y141.12 E10.7328
G1 X41.08 Y141.112 E10.77793
G1 X39.53 Y141.116 E10.82948
G1 X36.855 Y141.143 E10.91846
G1 X36.123 Y141.139 E10.94281
G1 X35.169 Y141.094 E10.97457
G1 X33.974 Y140.923 E11.01472
G1 X33.63 Y140.855 E11.02639
G1 X33.204 Y140.762 E11.04089
G1 X32.897 Y140.689 E11.05138
G1 X31.654 Y140.317 E11.09454
G1 X31.06 Y140.102 E11.11555
G1 X30.177 Y139.74 E11.14729
G1 X29.327 Y139.305 E11.17905
G1 X28.532 Y138.812 E11.21016
G1 X28.223 Y138.602 E11.22259
G1 X27.275 Y137.883 E11.26216
G1 X26.799 Y137.481 E11.28288
G1 X26.39 Y137.118 E11.30107
G1 X26.261 Y136.998 E11.30693
G1 X25.59 Y136.319 E11.33868
G1 X24.978 Y135.586 E11.37044
G1 X24.421 Y134.791 E11.40273
G1 X24.148 Y134.359 E11.41972
G1 X23.942 Y134.019 E11.43295
G1 X23.834 Y133.836 E11.44001
G1 X23.384 Y132.994 E11.47177
G1 X23.005 Y132.118 E11.50351
G1 X22.814 Y131.576 E11.52263
G1 X22.739 Y131.346 E11.53067
G1 X22.474 Y130.399 E11.56338
G1 X22.327 Y129.768 E11.58493
G1 X22.15 Y128.829 E11.61671
G1 X22.051 Y127.874 E11.64865
G1 X22.025 Y127.409 E11.66414
G1 X22.012 Y127.086 E11.67489
G1 X22.005 Y126.835 E11.68324
G1 X21.976 Y125.238 E11.73636
G1 X21.974 Y124.955 E11.74578
G1 X21.981 Y123.967 E11.77864
G1 X22.011 Y121.85 E11.84906
G1 X22.019 Y119.778 E11.91797
G1 X22.012 Y118.722 E11.9531
G1 X22.024 Y116.301 E12.03362
G1 X22.023 Y115.169 E12.07127
G1 X21.991 Y113.253 E12.13501
G1 X21.98 Y111.781 E12.18397
G1 X21.978 Y110.005 E12.24304
G1 X21.988 Y108.757 E12.28455
G1 X21.996 Y106.129 E12.37195
G1 X21.988 Y105.095 E12.40635
G1 X21.984 Y102.832 E12.48161
G1 X21.976 Y102.555 E12.49083
G1 X21.978 Y100.734 E12.5514
G1 X21.971 Y100.033 E12.57471
G1 X21.975 Y98.443 E12.6276
G1 X21.985 Y97.784 E12.64952
G1 X21.981 Y97.617 E12.65507
G1 X22.001 Y95.748 E12.71724
G1 X21.998 Y94.923 E12.74468
G1 X21.991 Y94.394 E12.76228
G1 X21.995 Y93.018 E12.80804
G1 X21.988 Y91.191 E12.86881
G1 X21.981 Y90.597 E12.88857
G1 X21.979 Y89.409 E12.92808
G1 X21.975 Y88.94 E12.94368
G1 X21.977 Y88.644 E12.95353
G1 X21.985 Y88.195 E12.96846
G1 X22 Y85.473 E13.059
G1 X21.992 Y82.72 E13.15056
G1 X21.989 Y80.224 E13.23358
G1 X22.002 Y78.722 E13.28354
G1 X22.005 Y77.771 E13.31517
G1 X22.007 Y74.767 E13.41508
G1 X22.021 Y72.593 E13.48739
G1 X22.003 Y70.918 E13.54311
G1 X22.012 Y70.636 E13.55249
G1 X21.989 Y68.475 E13.62437
G1 X21.991 Y67.588 E13.65387
G1 X22 Y66.572 E13.68767
G1 X21.99 Y64.159 E13.76792
G1 X21.983 Y63.407 E13.79294
G1 X21.984 Y62.378 E13.82716
G1 X21.993 Y61.697 E13.84981
G1 X22.006 Y61.059 E13.87104
G1 X22.024 Y59.397 E13.92632
G1 X22.025 Y58.773 E13.94707
G1 X22.011 Y57.631 E13.98506
G1 X22.002 Y55.951 E14.04094
G1 X21.996 Y55.614 E14.05215
G1 X21.989 Y54.252 E14.09745
G1 X21.991 Y53.412 E14.12539
G1 X21.987 Y52.399 E14.15908
G1 X21.981 Y51.742 E14.18093
G1 X21.983 Y51.449 E14.19068
G1 X21.998 Y50.57 E14.21992
G1 X22.012 Y48.787 E14.27922
G1 X22.011 Y47.723 E14.31461
G1 X21.998 Y45.521 E14.38785
G1 X21.989 Y45.036 E14.40398
G1 X21.981 Y43.997 E14.43854
G1 X21.982 Y43.567 E14.45284
G1 X21.991 Y42.565 E14.48617
G1 X21.983 Y39.535 E14.58695
G1 X22.003 Y37.941 E14.63997
G1 X22.072 Y36.794 E14.67819
G1 X22.092 Y36.615 E14.68418
G1 X22.179 Y35.994 E14.70504
G1 X22.226 Y35.714 E14.71448
G1 X22.424 Y34.78 E14.74624
G1 X22.608 Y34.136 E14.76851
G1 X22.724 Y33.776 E14.78109
G1 X22.811 Y33.512 E14.79034
G1 X22.903 Y33.244 E14.79976
G1 X23.017 Y32.925 E14.81103
G1 X23.376 Y32.04 E14.84279
G1 X23.98 Y30.889 E14.88603
G1 X24.114 Y30.666 E14.89468
G1 X24.895 Y29.529 E14.94056
G1 X25.04 Y29.343 E14.9484
G1 X25.636 Y28.639 E14.97908
G1 X25.783 Y28.479 E14.98631
G1 X26.267 Y27.984 E15.00933
G1 X26.765 Y27.504 E15.03234
G0 F6000 X27.042 Y27.792
G1 F1200 X27.745 Y27.171 E15.06354
G1 X28.497 Y26.611 E15.09472
G1 X29.576 Y25.966 E15.13653
G1 X29.876 Y25.809 E15.1478
G1 X30.317 Y25.59 E15.16417
G1 X30.471 Y25.518 E15.16983
G1 X31.528 Y25.09 E15.20776
G1 X31.779 Y25.003 E15.21659
G1 X32.121 Y24.89 E15.22857
G1 X32.411 Y24.8 E15.23867
G1 X33.317 Y24.561 E15.26983
G1 X33.909 Y24.448 E15.28988
G1 X34.1 Y24.417 E15.29632
G1 X34.584 Y24.349 E15.31257
G1 X35.02 Y24.298 E15.32717
G1 X35.98 Y24.229 E15.35918
G1 X36.326 Y24.219 E15.3707
G1 X36.634 Y24.214 E15.38094
G1 X40.012 Y24.211 E15.4933
G1 X126.068 Y24.211 E18.35553
G1 X126.622 Y24.209 E18.37396
G1 X128.182 Y24.211 E18.42584
G1 X128.874 Y24.222 E18.44886
G1 X129.81 Y24.277 E18.48005
G1 X130.394 Y24.352 E18.49963
G1 X130.875 Y24.427 E18.51582
G1 X131.381 Y24.519 E18.53293
G1 X131.616 Y24.567 E18.5409
G1 X132.544 Y24.798 E18.57271
G1 X132.844 Y24.887 E18.58312
G1 X133.816 Y25.226 E18.61736
G1 X134.259 Y25.404 E18.63324
G1 X135.114 Y25.791 E18.66445
G1 X135.932 Y26.248 E18.69562
G1 X136.493 Y26.618 E18.71797
G1 X136.74 Y26.792 E18.72802
G1 X137.196 Y27.131 E18.74692
G1 X137.34 Y27.244 E18.753
G1 X138.052 Y27.854 E18.78419
G1 X138.479 Y28.275 E18.80413
G1 X138.787 Y28.598 E18.81898
G1 X139.187 Y29.032 E18.83861
G1 X139.792 Y29.748 E18.86978
G1 X140.335 Y30.513 E18.90099
G1 X140.859 Y31.415 E18.93568
G1 X140.912 Y31.517 E18.9395
G1 X141.123 Y31.947 E18.95544
G1 X141.258 Y32.237 E18.96608
G1 X141.477 Y32.74 E18.98432
G1 X141.609 Y33.065 E18.99599
G1 X141.828 Y33.649 E19.01673
G1 X141.87 Y33.772 E19.02106
G1 X142.05 Y34.353 E19.04129
G1 X142.148 Y34.702 E19.05334
G1 X142.363 Y35.615 E19.08454
G1 X142.466 Y36.26 E19.10627
G1 X142.503 Y36.545 E19.11582
G1 X142.579 Y37.361 E19.14308
G1 X142.592 Y37.599 E19.15101
G1 X142.608 Y38.126 E19.16855
G1 X142.613 Y38.878 E19.19356
G1 X142.612 Y39.119 E19.20157
G1 X142.592 Y40.427 E19.24508
G1 X142.592 Y42.627 E19.31826
G1 X142.586 Y42.769 E19.32298
G1 X142.599 Y45.486 E19.41335
G1 X142.604 Y46.23 E19.4381
G1 X142.617 Y47.352 E19.47542
G1 X142.613 Y49.224 E19.53768
G1 X142.617 Y50.267 E19.57237
G1 X142.629 Y51.674 E19.61917
G1 X142.625 Y52.989 E19.66291
G1 X142.62 Y53.333 E19.67435
G1 X142.621 Y54.995 E19.72963
G1 X142.609 Y56.864 E19.79179
G1 X142.604 Y58.837 E19.85742
G1 X142.612 Y59.871 E19.89181
G1 X142.616 Y62.269 E19.97157
G1 X142.624 Y62.406 E19.97613
G1 X142.622 Y64.114 E20.03294
G1 X142.626 Y64.384 E20.04192
G1 X142.629 Y65.146 E20.06726
G1 X142.624 Y66.608 E20.11589
G1 X142.612 Y67.34 E20.14024
G1 X142.6 Y69.041 E20.19682
G1 X142.602 Y69.94 E20.22672
G1 X142.609 Y70.456 E20.24388
G1 X142.605 Y71.941 E20.29327
G1 X142.612 Y73.779 E20.35441
G1 X142.627 Y74.959 E20.39366
G1 X142.629 Y76.037 E20.42951
G1 X142.626 Y76.54 E20.44624
G1 X142.631 Y76.62 E20.44891
G1 X142.619 Y78.642 E20.51616
G1 X142.603 Y79.563 E20.5468
G1 X142.592 Y81.293 E20.60434
G1 X142.582 Y84.596 E20.7142
G1 X142.591 Y88.749 E20.85233
G1 X142.588 Y92.305 E20.9706
G1 X142.593 Y93.356 E21.00556
G1 X142.61 Y95.032 E21.0613
G1 X142.612 Y95.887 E21.08974
G1 X142.609 Y97.243 E21.13484
G1 X142.599 Y98.368 E21.17226
G1 X142.611 Y100.772 E21.25222
G1 X142.618 Y101.768 E21.28535
G1 X142.612 Y103.012 E21.32672
G1 X142.594 Y103.899 E21.35623
G1 X142.576 Y105.547 E21.41105
G1 X142.575 Y106.192 E21.4325
G1 X142.592 Y107.559 E21.47797
G1 X142.609 Y109.767 E21.55141
G1 X142.604 Y110.55 E21.57745
G1 X142.61 Y111.088 E21.59535
G1 X142.607 Y112.29 E21.63533
G1 X142.611 Y114.486 E21.70837
G1 X142.588 Y115.985 E21.75823
G1 X142.588 Y116.843 E21.78677
G1 X142.585 Y117.098 E21.79525
G1 X142.584 Y118.437 E21.83978
G1 X142.592 Y123.212 E21.9986
G1 X142.586 Y125.753 E22.08312
G1 X142.583 Y125.971 E22.09037
G1 X142.545 Y127.537 E22.14247
G1 X142.482 Y128.473 E22.17367
G1 X142.34 Y129.4 E22.20486
G1 X142.119 Y130.311 E22.23604
G1 X141.831 Y131.176 E22.26636
G1 X141.537 Y131.95 E22.2939
G1 X141.398 Y132.299 E22.3064
G1 X141.26 Y132.628 E22.31826
G1 X140.687 Y133.795 E22.3615
G1 X140.521 Y134.088 E22.3727
G1 X140.024 Y134.884 E22.40392
G1 X139.461 Y135.634 E22.43511
G1 X139.086 Y136.069 E22.45421
G1 X138.995 Y136.169 E22.45871
G1 X138.697 Y136.484 E22.47313
G1 X138.504 Y136.68 E22.48228
G1 X137.603 Y137.499 E22.52277
G1 X137.315 Y137.733 E22.53512
G1 X136.48 Y138.349 E22.56963
G1 X136.279 Y138.483 E22.57766
G1 X135.477 Y138.969 E22.60885
G1 X134.43 Y139.475 E22.64753
G1 X134.201 Y139.571 E22.65579
G1 X133.905 Y139.689 E22.66639
G1 X133.586 Y139.812 E22.67776
G1 X133.282 Y139.925 E22.68855
