;FLAVOR:Marlin
;TIME:6109
;Filament used: 4.01961m
;Layer height: 0.2
;MINX:33.09
;MINY:45.99
;MINZ:0.2
;MAXX:131.91
;MAXY:119.01
;MAXZ:20
;Generated with Creality Slicer 4.8.0-147
M140 S70
M105
M190 S70
M104 S220
M105
M109 S220
M82 ;absolute extrusion mode
M201 X500.00 Y500.00 Z100.00 E5000.00 ;Setup machine max acceleration
M203 X500.00 Y500.00 Z10.00 E50.00 ;Setup machine max feedrate
M204 P500.00 R1000.00 T500.00 ;Setup Print/Retract/Travel acceleration
M205 X8.00 Y8.00 Z0.40 E5.00 ;Setup Jerk
M220 S100 ;Reset Feedrate
M221 S100 ;Reset Flowrate

G28 ;Home
M420 S1

G92 E0 ;Reset Extruder
G1 Z2.0 F3000 ;Move Z Axis up
G1 X10.1 Y20 Z0.28 F5000.0 ;Move to start position
G1 X10.1 Y150.0 Z0.28 F1500.0 E15 ;Draw the first line
G1 X10.4 Y150.0 Z0.28 F5000.0 ;Move to side a little
G1 X10.4 Y20 Z0.28 F1500.0 E30 ;Draw the second line
G92 E0 ;Reset Extruder
G1 Z2.0 F3000 ;Move Z Axis up

G92 E0
G92 E0
G1 F2400 E-4
;LAYER_COUNT:100
;LAYER:0
M107
G0 F6000 X37.757 Y48.61 Z0.2
;TYPE:SKIRT
G1 F2400 E0
G1 F1200 X38.557 Y48.031 E0.03285
G1 X39.402 Y47.519 E0.06571
G1 X40.285 Y47.077 E0.09855
G1 X41.202 Y46.708 E0.13143
G1 X42.145 Y46.414 E0.16428
G1 X43.108 Y46.197 E0.19711
G1 X44.086 Y46.059 E0.22996
G1 X44.957 Y46.004 E0.25899
G1 X45.278 Y45.995 E0.26967
G1 X45.62 Y45.99 E0.28105
G1 X119.003 Y45.99 E2.72178
G1 X119.876 Y46.001 E2.75081
G1 X120.862 Y46.055 E2.78366
G1 X121.841 Y46.189 E2.81652
G1 X122.805 Y46.402 E2.84936
G1 X123.75 Y46.691 E2.88223
G1 X124.667 Y47.057 E2.91507
G1 X125.552 Y47.495 E2.94791
G1 X126.399 Y48.003 E2.98076
G1 X127.202 Y48.579 E3.01363
G1 X127.956 Y49.217 E3.04648
G1 X128.656 Y49.914 E3.07933
G1 X129.296 Y50.666 E3.11218
G1 X129.874 Y51.466 E3.145
G1 X130.386 Y52.312 E3.17789
G1 X130.827 Y53.195 E3.21072
G1 X131.196 Y54.112 E3.2436
G1 X131.489 Y55.055 E3.27644
G1 X131.704 Y56.019 E3.30929
G1 X131.842 Y56.997 E3.34214
G1 X131.896 Y57.857 E3.3708
G1 X131.905 Y58.177 E3.38145
G1 X131.91 Y58.52 E3.39286
G1 X131.909 Y106.225 E4.97953
G1 X131.9 Y106.952 E5.00372
G1 X131.848 Y107.938 E5.03656
G1 X131.716 Y108.917 E5.06941
G1 X131.505 Y109.882 E5.10227
G1 X131.218 Y110.827 E5.13511
G1 X130.854 Y111.746 E5.16799
G1 X130.418 Y112.632 E5.20083
G1 X129.911 Y113.479 E5.23367
G1 X129.337 Y114.283 E5.26652
G1 X128.7 Y115.038 E5.29938
G1 X128.004 Y115.739 E5.33223
G1 X127.254 Y116.382 E5.36509
G1 X126.454 Y116.961 E5.39794
G1 X125.61 Y117.474 E5.43079
G1 X124.727 Y117.917 E5.46365
G1 X123.812 Y118.288 E5.49648
G1 X122.869 Y118.582 E5.52934
G1 X121.906 Y118.8 E5.56218
G1 X120.928 Y118.939 E5.59503
G1 X120.043 Y118.996 E5.62453
G1 X119.722 Y119.005 E5.63521
G1 X119.38 Y119.01 E5.64659
G1 X45.84 Y119.009 E8.09254
G1 X45.142 Y119 E8.11575
G1 X44.155 Y118.947 E8.14863
G1 X43.177 Y118.815 E8.18145
G1 X42.212 Y118.604 E8.21431
G1 X41.267 Y118.315 E8.24717
G1 X40.349 Y117.952 E8.28001
G1 X39.463 Y117.515 E8.31287
G1 X38.615 Y117.007 E8.34574
G1 X37.812 Y116.433 E8.37857
G1 X37.057 Y115.796 E8.41143
G1 X36.356 Y115.1 E8.44428
G1 X35.714 Y114.349 E8.47715
G1 X35.135 Y113.549 E8.50999
G1 X34.623 Y112.705 E8.54282
G1 X34.18 Y111.822 E8.57568
G1 X33.81 Y110.906 E8.60854
G1 X33.516 Y109.963 E8.64139
G1 X33.299 Y108.999 E8.67426
G1 X33.16 Y108.021 E8.70711
G1 X33.103 Y107.131 E8.73678
G1 X33.094 Y106.798 E8.74786
G1 X33.09 Y106.468 E8.75883
G1 X33.091 Y58.699 E10.34764
G1 X33.1 Y58.034 E10.36976
G1 X33.153 Y57.048 E10.4026
G1 X33.286 Y56.069 E10.43546
G1 X33.498 Y55.104 E10.46832
G1 X33.787 Y54.16 E10.50116
G1 X34.152 Y53.242 E10.53401
G1 X34.589 Y52.356 E10.56687
G1 X35.097 Y51.509 E10.59972
G1 X35.672 Y50.706 E10.63257
G1 X36.309 Y49.951 E10.66543
G1 X37.006 Y49.251 E10.69828
G1 X37.757 Y48.61 E10.73112
G0 F6000 X38.144 Y48.816
G1 F1200 X38.94 Y48.259 E10.76343
G1 X39.779 Y47.77 E10.79573
G1 X40.656 Y47.351 E10.82806
G1 X41.564 Y47.006 E10.86037
G1 X42.497 Y46.737 E10.89266
G1 X43.449 Y46.545 E10.92496
G1 X44.414 Y46.432 E10.95728
G1 X44.968 Y46.404 E10.97573
G1 X45.289 Y46.395 E10.98641
G1 X45.62 Y46.39 E10.99742
G1 X119.003 Y46.39 E13.43815
G1 X119.87 Y46.401 E13.46699
G1 X120.84 Y46.455 E13.4993
G1 X121.802 Y46.589 E13.5316
G1 X122.75 Y46.801 E13.56391
G1 X123.677 Y47.09 E13.59621
G1 X124.578 Y47.455 E13.62854
G1 X125.445 Y47.892 E13.66084
G1 X126.273 Y48.4 E13.69314
G1 X127.057 Y48.974 E13.72546
G1 X127.791 Y49.61 E13.75776
G1 X128.47 Y50.304 E13.79006
G1 X129.09 Y51.052 E13.82237
G1 X129.646 Y51.849 E13.85469
G1 X130.135 Y52.688 E13.88699
G1 X130.553 Y53.565 E13.9193
G1 X130.897 Y54.474 E13.95163
G1 X131.166 Y55.407 E13.98393
G1 X131.357 Y56.36 E14.01625
G1 X131.468 Y57.324 E14.04853
G1 X131.496 Y57.868 E14.06665
G1 X131.505 Y58.188 E14.07729
G1 X131.51 Y58.52 E14.08834
G1 X131.509 Y106.22 E15.67485
G1 X131.5 Y106.947 E15.69903
G1 X131.448 Y107.917 E15.73134
G1 X131.316 Y108.88 E15.76366
G1 X131.106 Y109.828 E15.79596
G1 X130.819 Y110.756 E15.82827
G1 X130.456 Y111.657 E15.86058
G1 X130.02 Y112.525 E15.89288
G1 X129.514 Y113.354 E15.92519
G1 X128.942 Y114.139 E15.95749
G1 X128.307 Y114.874 E15.9898
G1 X127.614 Y115.555 E16.02211
G1 X126.867 Y116.176 E16.05442
G1 X126.071 Y116.734 E16.08675
G1 X125.233 Y117.224 E16.11904
G1 X124.357 Y117.644 E16.15135
G1 X123.449 Y117.99 E16.18367
G1 X122.516 Y118.26 E16.21598
G1 X121.564 Y118.453 E16.24828
G1 X120.599 Y118.567 E16.2806
G1 X120.032 Y118.596 E16.29949
G1 X119.711 Y118.605 E16.31017
G1 X119.38 Y118.61 E16.32118
G1 X45.845 Y118.609 E18.76696
G1 X45.147 Y118.6 E18.79018
G1 X44.177 Y118.548 E18.82249
G1 X43.215 Y118.415 E18.85479
G1 X42.266 Y118.205 E18.88712
G1 X41.339 Y117.917 E18.9194
G1 X40.438 Y117.553 E18.95172
G1 X39.57 Y117.117 E18.98403
G1 X38.741 Y116.611 E19.01633
G1 X37.956 Y116.038 E19.04866
G1 X37.221 Y115.403 E19.08096
G1 X36.541 Y114.709 E19.11328
G1 X35.92 Y113.962 E19.14559
G1 X35.363 Y113.166 E19.1779
G1 X34.873 Y112.328 E19.21019
G1 X34.454 Y111.451 E19.24252
G1 X34.108 Y110.544 E19.2748
G1 X33.838 Y109.61 E19.30714
G1 X33.646 Y108.658 E19.33944
G1 X33.533 Y107.693 E19.37176
G1 X33.503 Y107.12 E19.39084
G1 X33.494 Y106.787 E19.40192
G1 X33.49 Y106.468 E19.41253
G1 X33.491 Y58.704 E21.00117
G1 X33.5 Y58.039 E21.02329
G1 X33.553 Y57.069 E21.0556
G1 X33.686 Y56.107 E21.0879
G1 X33.897 Y55.159 E21.1202
G1 X34.186 Y54.231 E21.15253
G1 X34.55 Y53.331 E21.18482
G1 X34.987 Y52.463 E21.21714
G1 X35.494 Y51.634 E21.24946
G1 X36.067 Y50.85 E21.28176
G1 X36.702 Y50.116 E21.31404
G1 X37.396 Y49.436 E21.34636
G1 X38.144 Y48.816 E21.37867
G0 F6000 X38.53 Y49.026
G1 F1200 X39.322 Y48.492 E21.41044
G1 X40.155 Y48.026 E21.44219
G1 X41.024 Y47.631 E21.47394
G1 X41.923 Y47.31 E21.50569
G1 X42.846 Y47.066 E21.53744
G1 X43.787 Y46.9 E21.56922
G1 X44.979 Y46.803 E21.609
G1 X45.3 Y46.794 E21.61968
G1 X45.62 Y46.79 E21.63032
G1 X119.003 Y46.79 E24.07105
G1 X119.864 Y46.801 E24.09969
G1 X120.818 Y46.855 E24.13147
G1 X121.763 Y46.988 E24.16321
G1 X122.694 Y47.2 E24.19497
G1 X123.604 Y47.489 E24.22673
G1 X124.487 Y47.853 E24.25849
G1 X125.336 Y48.29 E24.29025
G1 X126.145 Y48.796 E24.32199
G1 X126.909 Y49.368 E24.35373
G1 X127.623 Y50.002 E24.38549
G1 X128.281 Y50.694 E24.41725
G1 X128.879 Y51.438 E24.449
G1 X129.413 Y52.23 E24.48077
G1 X129.878 Y53.064 E24.51253
G1 X130.273 Y53.933 E24.54428
G1 X130.592 Y54.833 E24.57604
G1 X130.836 Y55.756 E24.60779
G1 X131.001 Y56.697 E24.63957
G1 X131.096 Y57.88 E24.67904
G1 X131.105 Y58.2 E24.68969
G1 X131.11 Y58.52 E24.70033
G1 X131.109 Y106.215 E26.28667
G1 X131.1 Y106.942 E26.31085
G1 X131.048 Y107.895 E26.3426
G1 X130.917 Y108.841 E26.37436
G1 X130.707 Y109.773 E26.40614
G1 X130.42 Y110.683 E26.43787
G1 X130.057 Y111.566 E26.46963
G1 X129.622 Y112.416 E26.50139
G1 X129.117 Y113.227 E26.53316
G1 X128.547 Y113.992 E26.56489
G1 X127.914 Y114.707 E26.59665
G1 X127.224 Y115.367 E26.62841
G1 X126.48 Y115.966 E26.66018
G1 X125.69 Y116.501 E26.69191
G1 X124.857 Y116.968 E26.72368
G1 X123.988 Y117.364 E26.75544
G1 X123.089 Y117.686 E26.7872
G1 X122.166 Y117.931 E26.81896
G1 X121.226 Y118.098 E26.85072
G1 X120.021 Y118.197 E26.89093
G1 X119.7 Y118.206 E26.90161
G1 X119.38 Y118.21 E26.91226
G1 X45.85 Y118.209 E29.35787
G1 X45.152 Y118.2 E29.38109
G1 X44.199 Y118.148 E29.41283
G1 X43.253 Y118.016 E29.4446
G1 X42.322 Y117.805 E29.47635
G1 X41.411 Y117.518 E29.50812
G1 X40.528 Y117.155 E29.53988
G1 X39.679 Y116.719 E29.57162
G1 X38.868 Y116.214 E29.6034
G1 X38.103 Y115.643 E29.63515
G1 X37.389 Y115.01 E29.66688
G1 X36.729 Y114.319 E29.69866
G1 X36.13 Y113.576 E29.73041
G1 X35.596 Y112.785 E29.76215
G1 X35.129 Y111.952 E29.79391
G1 X34.734 Y111.083 E29.82566
G1 X34.412 Y110.184 E29.85742
G1 X34.168 Y109.261 E29.88918
G1 X34.001 Y108.321 E29.92093
G1 X33.903 Y107.109 E29.96137
G1 X33.894 Y106.776 E29.97245
G1 X33.89 Y106.468 E29.9827
G1 X33.891 Y58.71 E31.57114
G1 X33.9 Y58.045 E31.59326
G1 X33.953 Y57.091 E31.62503
G1 X34.085 Y56.146 E31.65677
G1 X34.297 Y55.215 E31.68853
G1 X34.585 Y54.305 E31.72027
G1 X34.948 Y53.422 E31.75203
G1 X35.384 Y52.572 E31.7838
G1 X35.89 Y51.762 E31.81557
G1 X36.462 Y50.998 E31.84731
G1 X37.095 Y50.283 E31.87907
G1 X37.786 Y49.625 E31.91081
G1 X38.53 Y49.026 E31.94258
G0 F6000 X38.176 Y49.817
G1 F1200 X38.916 Y49.241 E31.97377
G1 X39.702 Y48.729 E32.00497
G1 X40.529 Y48.287 E32.03615
G1 X41.391 Y47.917 E32.06735
G1 X42.281 Y47.621 E32.09855
G1 X43.193 Y47.403 E32.12974
G1 X44.12 Y47.262 E32.16092
G1 X44.991 Y47.203 E32.18996
G1 X45.312 Y47.194 E32.20064
G1 X45.62 Y47.19 E32.21089
G1 X119.003 Y47.19 E34.65161
G1 X119.859 Y47.201 E34.68009
G1 X120.795 Y47.255 E34.71127
G1 X121.723 Y47.387 E34.74245
G1 X122.637 Y47.599 E34.77365
G1 X123.529 Y47.888 E34.80484
G1 X124.394 Y48.251 E34.83604
G1 X125.224 Y48.687 E34.86722
G1 X126.015 Y49.192 E34.89844
G1 X126.759 Y49.763 E34.92963
G1 X127.452 Y50.395 E34.96083
G1 X128.089 Y51.083 E34.99201
G1 X128.664 Y51.824 E35.02321
G1 X129.175 Y52.61 E35.05439
G1 X129.617 Y53.438 E35.0856
G1 X129.986 Y54.3 E35.11679
G1 X130.281 Y55.19 E35.14798
G1 X130.499 Y56.102 E35.17916
G1 X130.639 Y57.03 E35.21038
G1 X130.697 Y57.891 E35.23908
G1 X130.706 Y58.211 E35.24973
G1 X130.71 Y58.52 E35.26001
G1 X130.709 Y106.21 E36.84618
G1 X130.7 Y106.937 E36.87036
G1 X130.649 Y107.874 E36.90158
G1 X130.517 Y108.802 E36.93275
G1 X130.308 Y109.716 E36.96394
G1 X130.021 Y110.609 E36.99513
G1 X129.659 Y111.475 E37.02635
G1 X129.225 Y112.306 E37.05753
G1 X128.721 Y113.097 E37.08873
G1 X128.152 Y113.842 E37.11991
G1 X127.521 Y114.537 E37.15113
G1 X126.834 Y115.175 E37.18231
G1 X126.095 Y115.752 E37.2135
G1 X125.309 Y116.264 E37.2447
G1 X124.483 Y116.707 E37.27587
G1 X123.621 Y117.079 E37.3071
G1 X122.732 Y117.375 E37.33826
G1 X121.82 Y117.595 E37.36947
G1 X120.893 Y117.736 E37.40065
G1 X120.009 Y117.797 E37.43012
G1 X119.688 Y117.806 E37.4408
G1 X119.38 Y117.81 E37.45105
G1 X45.855 Y117.809 E39.8965
G1 X45.157 Y117.8 E39.91972
G1 X44.221 Y117.748 E39.9509
G1 X43.292 Y117.616 E39.98211
G1 X42.378 Y117.406 E40.0133
G1 X41.485 Y117.119 E40.0445
G1 X40.62 Y116.756 E40.0757
G1 X39.789 Y116.322 E40.10688
G1 X38.998 Y115.818 E40.13807
G1 X38.253 Y115.248 E40.16927
G1 X37.559 Y114.617 E40.20047
G1 X36.922 Y113.93 E40.23163
G1 X36.345 Y113.19 E40.26284
G1 X35.833 Y112.404 E40.29404
G1 X35.39 Y111.577 E40.32524
G1 X35.019 Y110.716 E40.35643
G1 X34.723 Y109.826 E40.38762
G1 X34.504 Y108.914 E40.41882
G1 X34.363 Y107.987 E40.45001
G1 X34.303 Y107.098 E40.47964
G1 X34.294 Y106.765 E40.49072
G1 X34.29 Y106.468 E40.5006
G1 X34.291 Y58.715 E42.08887
G1 X34.3 Y58.05 E42.11099
G1 X34.353 Y57.114 E42.14217
G1 X34.485 Y56.185 E42.17338
G1 X34.696 Y55.271 E42.20458
G1 X34.984 Y54.379 E42.23576
G1 X35.347 Y53.514 E42.26696
G1 X35.782 Y52.683 E42.29815
G1 X36.286 Y51.893 E42.32932
G1 X36.856 Y51.148 E42.36052
G1 X37.488 Y50.454 E42.39174
G1 X38.176 Y49.817 E42.42293
G0 F6000 X38.564 Y50.013
G1 F1200 X39.3 Y49.46 E42.45355
G1 X40.081 Y48.972 E42.48418
G1 X40.901 Y48.554 E42.51479
G1 X41.755 Y48.209 E42.54542
G1 X42.635 Y47.939 E42.57604
G1 X43.535 Y47.747 E42.60665
G1 X44.449 Y47.633 E42.63728
G1 X45.002 Y47.603 E42.6557
G1 X45.323 Y47.594 E42.66638
G1 X45.62 Y47.59 E42.67626
G1 X119.003 Y47.59 E45.11699
G1 X119.853 Y47.601 E45.14526
G1 X120.772 Y47.654 E45.17588
G1 X121.683 Y47.787 E45.2065
G1 X122.579 Y47.998 E45.23712
G1 X123.453 Y48.286 E45.26772
G1 X124.3 Y48.649 E45.29837
G1 X125.111 Y49.084 E45.32898
G1 X125.881 Y49.588 E45.35959
G1 X126.605 Y50.157 E45.39022
G1 X127.277 Y50.787 E45.42085
G1 X127.892 Y51.472 E45.45147
G1 X128.445 Y52.208 E45.48209
G1 X128.932 Y52.989 E45.51271
G1 X129.349 Y53.81 E45.54333
G1 X129.694 Y54.664 E45.57397
G1 X129.963 Y55.544 E45.60457
G1 X130.155 Y56.445 E45.63521
G1 X130.268 Y57.358 E45.66581
G1 X130.297 Y57.902 E45.68393
G1 X130.306 Y58.222 E45.69458
G1 X130.31 Y58.52 E45.70449
G1 X130.309 Y106.205 E47.2905
G1 X130.3 Y106.932 E47.31468
G1 X130.249 Y107.851 E47.34529
G1 X130.118 Y108.763 E47.37594
G1 X129.908 Y109.659 E47.40655
G1 X129.622 Y110.534 E47.43717
G1 X129.261 Y111.381 E47.46779
G1 X128.827 Y112.193 E47.49841
G1 X128.325 Y112.965 E47.52904
G1 X127.757 Y113.69 E47.55967
G1 X127.129 Y114.363 E47.59029
G1 X126.445 Y114.979 E47.6209
G1 X125.71 Y115.533 E47.65152
G1 X124.93 Y116.022 E47.68214
G1 X124.11 Y116.441 E47.71276
G1 X123.257 Y116.787 E47.74338
G1 X122.377 Y117.058 E47.77401
G1 X121.477 Y117.251 E47.80462
G1 X120.563 Y117.366 E47.83526
G1 X119.998 Y117.397 E47.85408
G1 X119.677 Y117.406 E47.86476
G1 X119.38 Y117.41 E47.87464
G1 X45.86 Y117.409 E50.31992
G1 X45.162 Y117.4 E50.34314
G1 X44.243 Y117.348 E50.37376
G1 X43.332 Y117.217 E50.40437
G1 X42.436 Y117.007 E50.43498
G1 X41.561 Y116.72 E50.46561
G1 X40.714 Y116.358 E50.49624
G1 X39.902 Y115.924 E50.52686
G1 X39.131 Y115.422 E50.55746
G1 X38.406 Y114.854 E50.5881
G1 X37.733 Y114.225 E50.61874
G1 X37.118 Y113.541 E50.64933
G1 X36.564 Y112.806 E50.67994
G1 X36.076 Y112.025 E50.71057
G1 X35.657 Y111.205 E50.7412
G1 X35.311 Y110.352 E50.77182
G1 X35.041 Y109.472 E50.80243
G1 X34.848 Y108.571 E50.83308
G1 X34.734 Y107.658 E50.86368
G1 X34.703 Y107.087 E50.8827
G1 X34.694 Y106.754 E50.89378
G1 X34.69 Y106.468 E50.90329
G1 X34.691 Y58.721 E52.49137
G1 X34.7 Y58.056 E52.51349
G1 X34.752 Y57.136 E52.54413
G1 X34.884 Y56.225 E52.57475
G1 X35.095 Y55.329 E52.60537
G1 X35.382 Y54.454 E52.63599
G1 X35.745 Y53.608 E52.66661
G1 X36.179 Y52.796 E52.69724
G1 X36.682 Y52.025 E52.72785
G1 X37.251 Y51.301 E52.75848
G1 X37.879 Y50.629 E52.78907
G1 X38.564 Y50.013 E52.81971
G0 F6000 X38.952 Y50.214
G1 F1200 X39.684 Y49.684 E52.84977
G1 X40.459 Y49.221 E52.8798
G1 X41.272 Y48.828 E52.90983
G1 X42.117 Y48.508 E52.93988
G1 X42.986 Y48.265 E52.9699
G1 X43.874 Y48.099 E52.99994
G1 X45.013 Y48.003 E53.03796
G1 X45.334 Y47.994 E53.04864
G1 X45.62 Y47.99 E53.05815
G1 X119.003 Y47.99 E55.49888
G1 X119.847 Y48.001 E55.52696
G1 X120.749 Y48.054 E55.55701
G1 X121.642 Y48.186 E55.58703
G1 X122.52 Y48.397 E55.61707
G1 X123.376 Y48.685 E55.64711
G1 X124.203 Y49.047 E55.67713
G1 X124.995 Y49.482 E55.70719
G1 X125.746 Y49.984 E55.73723
G1 X126.449 Y50.551 E55.76727
G1 X127.099 Y51.178 E55.79731
G1 X127.691 Y51.86 E55.82734
G1 X128.221 Y52.591 E55.85738
G1 X128.683 Y53.367 E55.88741
G1 X129.076 Y54.18 E55.91745
G1 X129.394 Y55.025 E55.94748
G1 X129.637 Y55.895 E55.97752
G1 X129.802 Y56.783 E56.00756
G1 X129.897 Y57.913 E56.04528
G1 X129.906 Y58.233 E56.05593
G1 X129.91 Y58.52 E56.06547
G1 X129.909 Y106.2 E57.65132
G1 X129.9 Y106.927 E57.6755
G1 X129.849 Y107.829 E57.70555
G1 X129.718 Y108.723 E57.7356
G1 X129.509 Y109.601 E57.76562
G1 X129.223 Y110.458 E57.79567
G1 X128.862 Y111.286 E57.82571
G1 X128.43 Y112.078 E57.85571
